(G-CODE GENERATED BY FLATCAM v8.99 - www.flatcam.org - Version Date: 2019/12/15)

(Name: PCB card-F_Cu.gbr_iso_cnc)
(Type: G-code from Geometry)
(Units: MM)

(Created on Tuesday, 09 December 2025 at 14:03)

(TOOL DIAMETER: 0.1536 mm)
(Feedrate: 120.0 mm/min)
(Feedrate_Z: 60.0 mm/min)
(Feedrate rapids 1500.0 mm/min)

(Z_Cut: -0.1 mm)
(Z_Move: 2.0 mm)
(Z Toolchange: 15.0 mm)
(X,Y Toolchange: 0.0000, 0.0000 mm)
(Z Start: None mm)
(Z End: 5.0 mm)
(Steps per circle: 64)
(Preprocessor Geometry: default)

(X range:    0.8707 ...   86.1293  mm)
(Y range:    0.8707 ...   56.1293  mm)

(Spindle Speed: None RPM)
G21
G90
G94




G01 F120.00
G00 Z2.0000

M03
G00 X0.8851 Y1.4906
G01 F60.00
G01 Z-0.1000
G01 F120.00
G01 X0.8963 Y1.4391
G01 X0.9163 Y1.3677
G01 X0.9446 Y1.2991
G01 X0.9482 Y1.2918
G01 X0.9737 Y1.2457
G01 X1.0030 Y1.2018
G01 X1.0358 Y1.1606
G01 X1.0815 Y1.1078
G01 X1.1231 Y1.0642
G01 X1.1686 Y1.0248
G01 X1.2177 Y0.9899
G01 X1.2694 Y0.9602
G01 X1.3237 Y0.9354
G01 X1.3800 Y0.9159
G01 X1.4471 Y0.8963
G01 X1.5053 Y0.8821
G01 X1.5646 Y0.8736
G01 X1.6245 Y0.8707
G01 X85.3755 Y0.8707
G01 X85.4428 Y0.8743
G01 X85.5094 Y0.8851
G01 X85.5609 Y0.8963
G01 X85.6323 Y0.9163
G01 X85.7009 Y0.9446
G01 X85.7082 Y0.9482
G01 X85.7543 Y0.9737
G01 X85.7982 Y1.0030
G01 X85.8394 Y1.0358
G01 X85.8922 Y1.0815
G01 X85.9358 Y1.1231
G01 X85.9752 Y1.1686
G01 X86.0101 Y1.2177
G01 X86.0398 Y1.2694
G01 X86.0646 Y1.3237
G01 X86.0841 Y1.3800
G01 X86.1037 Y1.4471
G01 X86.1179 Y1.5053
G01 X86.1264 Y1.5646
G01 X86.1293 Y1.6245
G01 X86.1293 Y55.3755
G01 X86.1257 Y55.4428
G01 X86.1149 Y55.5094
G01 X86.1037 Y55.5609
G01 X86.0837 Y55.6323
G01 X86.0554 Y55.7009
G01 X86.0518 Y55.7082
G01 X86.0263 Y55.7543
G01 X85.9970 Y55.7982
G01 X85.9642 Y55.8394
G01 X85.9185 Y55.8922
G01 X85.8769 Y55.9358
G01 X85.8314 Y55.9752
G01 X85.7823 Y56.0101
G01 X85.7306 Y56.0398
G01 X85.6763 Y56.0646
G01 X85.6200 Y56.0841
G01 X85.5529 Y56.1037
G01 X85.4947 Y56.1179
G01 X85.4354 Y56.1264
G01 X85.3755 Y56.1293
G01 X1.6245 Y56.1293
G01 X1.5572 Y56.1257
G01 X1.4906 Y56.1149
G01 X1.4391 Y56.1037
G01 X1.3677 Y56.0837
G01 X1.2992 Y56.0554
G01 X1.2918 Y56.0518
G01 X1.2457 Y56.0263
G01 X1.2018 Y55.9970
G01 X1.1606 Y55.9642
G01 X1.1078 Y55.9185
G01 X1.0642 Y55.8769
G01 X1.0248 Y55.8314
G01 X0.9899 Y55.7823
G01 X0.9602 Y55.7306
G01 X0.9354 Y55.6763
G01 X0.9159 Y55.6200
G01 X0.8963 Y55.5529
G01 X0.8821 Y55.4947
G01 X0.8736 Y55.4354
G01 X0.8707 Y55.3755
G01 X0.8707 Y1.6245
G01 X0.8743 Y1.5572
G01 X0.8851 Y1.4906
G00 Z2.0000
G00 X1.0202 Y1.5200
G01 F60.00
G01 Z-0.1000
G01 F120.00
G01 X1.0314 Y1.4685
G01 X1.0470 Y1.4128
G01 X1.0691 Y1.3593
G01 X1.0719 Y1.3535
G01 X1.0918 Y1.3175
G01 X1.1146 Y1.2833
G01 X1.1402 Y1.2511
G01 X1.1860 Y1.1983
G01 X1.2184 Y1.1643
G01 X1.2540 Y1.1335
G01 X1.2923 Y1.1063
G01 X1.3326 Y1.0831
G01 X1.3750 Y1.0638
G01 X1.4190 Y1.0486
G01 X1.4860 Y1.0289
G01 X1.5315 Y1.0179
G01 X1.5778 Y1.0112
G01 X1.6245 Y1.0090
G01 X85.3755 Y1.0090
G01 X85.4280 Y1.0118
G01 X85.4800 Y1.0202
G01 X85.5315 Y1.0314
G01 X85.5872 Y1.0470
G01 X85.6407 Y1.0691
G01 X85.6465 Y1.0719
G01 X85.6825 Y1.0918
G01 X85.7167 Y1.1146
G01 X85.7489 Y1.1402
G01 X85.8017 Y1.1860
G01 X85.8357 Y1.2184
G01 X85.8665 Y1.2540
G01 X85.8937 Y1.2923
G01 X85.9169 Y1.3326
G01 X85.9362 Y1.3750
G01 X85.9514 Y1.4190
G01 X85.9711 Y1.4860
G01 X85.9821 Y1.5315
G01 X85.9888 Y1.5778
G01 X85.9910 Y1.6245
G01 X85.9910 Y55.3755
G01 X85.9882 Y55.4280
G01 X85.9798 Y55.4800
G01 X85.9686 Y55.5315
G01 X85.9530 Y55.5872
G01 X85.9309 Y55.6407
G01 X85.9281 Y55.6465
G01 X85.9082 Y55.6825
G01 X85.8854 Y55.7167
G01 X85.8598 Y55.7489
G01 X85.8140 Y55.8017
G01 X85.7816 Y55.8357
G01 X85.7460 Y55.8665
G01 X85.7077 Y55.8937
G01 X85.6674 Y55.9169
G01 X85.6250 Y55.9362
G01 X85.5810 Y55.9514
G01 X85.5140 Y55.9711
G01 X85.4685 Y55.9821
G01 X85.4222 Y55.9888
G01 X85.3755 Y55.9910
G01 X1.6245 Y55.9910
G01 X1.5720 Y55.9882
G01 X1.5200 Y55.9798
G01 X1.4685 Y55.9686
G01 X1.4128 Y55.9530
G01 X1.3593 Y55.9309
G01 X1.3535 Y55.9281
G01 X1.3175 Y55.9082
G01 X1.2833 Y55.8854
G01 X1.2511 Y55.8598
G01 X1.1983 Y55.8140
G01 X1.1643 Y55.7816
G01 X1.1335 Y55.7460
G01 X1.1063 Y55.7077
G01 X1.0831 Y55.6674
G01 X1.0638 Y55.6250
G01 X1.0486 Y55.5810
G01 X1.0289 Y55.5140
G01 X1.0179 Y55.4685
G01 X1.0112 Y55.4222
G01 X1.0090 Y55.3755
G01 X1.0090 Y1.6245
G01 X1.0118 Y1.5720
G01 X1.0202 Y1.5200
G00 Z2.0000
G00 X1.1553 Y1.5494
G01 F60.00
G01 Z-0.1000
G01 F120.00
G01 X1.1665 Y1.4979
G01 X1.1777 Y1.4578
G01 X1.1936 Y1.4194
G01 X1.2099 Y1.3894
G01 X1.2263 Y1.3648
G01 X1.2447 Y1.3416
G01 X1.2905 Y1.2888
G01 X1.3138 Y1.2644
G01 X1.3393 Y1.2423
G01 X1.3669 Y1.2227
G01 X1.3959 Y1.2060
G01 X1.4263 Y1.1922
G01 X1.4579 Y1.1812
G01 X1.5250 Y1.1615
G01 X1.5576 Y1.1536
G01 X1.5909 Y1.1488
G01 X1.6245 Y1.1472
G01 X85.3755 Y1.1472
G01 X85.4133 Y1.1492
G01 X85.4506 Y1.1553
G01 X85.5021 Y1.1665
G01 X85.5422 Y1.1777
G01 X85.5806 Y1.1936
G01 X85.6106 Y1.2099
G01 X85.6352 Y1.2263
G01 X85.6584 Y1.2447
G01 X85.7112 Y1.2905
G01 X85.7356 Y1.3138
G01 X85.7577 Y1.3393
G01 X85.7773 Y1.3669
G01 X85.7940 Y1.3959
G01 X85.8078 Y1.4263
G01 X85.8188 Y1.4579
G01 X85.8385 Y1.5250
G01 X85.8464 Y1.5576
G01 X85.8512 Y1.5909
G01 X85.8528 Y1.6245
G01 X85.8528 Y55.3755
G01 X85.8508 Y55.4133
G01 X85.8447 Y55.4506
G01 X85.8335 Y55.5021
G01 X85.8223 Y55.5422
G01 X85.8064 Y55.5806
G01 X85.7901 Y55.6106
G01 X85.7737 Y55.6352
G01 X85.7553 Y55.6584
G01 X85.7095 Y55.7112
G01 X85.6862 Y55.7356
G01 X85.6607 Y55.7577
G01 X85.6331 Y55.7773
G01 X85.6041 Y55.7940
G01 X85.5737 Y55.8078
G01 X85.5421 Y55.8188
G01 X85.4750 Y55.8385
G01 X85.4424 Y55.8464
G01 X85.4091 Y55.8512
G01 X85.3755 Y55.8528
G01 X1.6245 Y55.8528
G01 X1.5867 Y55.8508
G01 X1.5494 Y55.8447
G01 X1.4979 Y55.8335
G01 X1.4578 Y55.8223
G01 X1.4194 Y55.8064
G01 X1.3894 Y55.7901
G01 X1.3648 Y55.7737
G01 X1.3416 Y55.7553
G01 X1.2888 Y55.7095
G01 X1.2644 Y55.6862
G01 X1.2423 Y55.6607
G01 X1.2227 Y55.6331
G01 X1.2060 Y55.6041
G01 X1.1922 Y55.5737
G01 X1.1812 Y55.5421
G01 X1.1615 Y55.4750
G01 X1.1536 Y55.4424
G01 X1.1488 Y55.4091
G01 X1.1472 Y55.3755
G01 X1.1472 Y1.6245
G01 X1.1492 Y1.5867
G01 X1.1553 Y1.5494
G00 Z2.0000
G00 X1.2904 Y1.5788
G01 F60.00
G01 Z-0.1000
G01 F120.00
G01 X1.3016 Y1.5273
G01 X1.3084 Y1.5029
G01 X1.3181 Y1.4795
G01 X1.3280 Y1.4612
G01 X1.3380 Y1.4462
G01 X1.3492 Y1.4322
G01 X1.3949 Y1.3794
G01 X1.4091 Y1.3645
G01 X1.4247 Y1.3510
G01 X1.4414 Y1.3391
G01 X1.4591 Y1.3290
G01 X1.4776 Y1.3205
G01 X1.4969 Y1.3139
G01 X1.5639 Y1.2942
G01 X1.5838 Y1.2893
G01 X1.6041 Y1.2864
G01 X1.6245 Y1.2855
G01 X85.3755 Y1.2855
G01 X85.3985 Y1.2867
G01 X85.4212 Y1.2904
G01 X85.4727 Y1.3016
G01 X85.4971 Y1.3084
G01 X85.5205 Y1.3181
G01 X85.5388 Y1.3280
G01 X85.5538 Y1.3380
G01 X85.5678 Y1.3492
G01 X85.6206 Y1.3949
G01 X85.6355 Y1.4091
G01 X85.6490 Y1.4247
G01 X85.6609 Y1.4415
G01 X85.6710 Y1.4591
G01 X85.6795 Y1.4776
G01 X85.6861 Y1.4969
G01 X85.7058 Y1.5639
G01 X85.7107 Y1.5838
G01 X85.7136 Y1.6041
G01 X85.7145 Y1.6245
G01 X85.7145 Y55.3755
G01 X85.7133 Y55.3985
G01 X85.7096 Y55.4212
G01 X85.6984 Y55.4727
G01 X85.6916 Y55.4971
G01 X85.6819 Y55.5205
G01 X85.6720 Y55.5388
G01 X85.6620 Y55.5538
G01 X85.6508 Y55.5678
G01 X85.6051 Y55.6206
G01 X85.5909 Y55.6355
G01 X85.5753 Y55.6490
G01 X85.5586 Y55.6609
G01 X85.5409 Y55.6710
G01 X85.5224 Y55.6795
G01 X85.5031 Y55.6861
G01 X85.4361 Y55.7058
G01 X85.4162 Y55.7107
G01 X85.3959 Y55.7136
G01 X85.3755 Y55.7145
G01 X1.6245 Y55.7145
G01 X1.6015 Y55.7133
G01 X1.5788 Y55.7096
G01 X1.5273 Y55.6984
G01 X1.5029 Y55.6916
G01 X1.4795 Y55.6819
G01 X1.4612 Y55.6720
G01 X1.4462 Y55.6620
G01 X1.4322 Y55.6508
G01 X1.3794 Y55.6051
G01 X1.3645 Y55.5909
G01 X1.3510 Y55.5753
G01 X1.3391 Y55.5586
G01 X1.3290 Y55.5409
G01 X1.3205 Y55.5224
G01 X1.3139 Y55.5031
G01 X1.2942 Y55.4361
G01 X1.2893 Y55.4162
G01 X1.2864 Y55.3959
G01 X1.2855 Y55.3755
G01 X1.2855 Y1.6245
G01 X1.2867 Y1.6015
G01 X1.2904 Y1.5788
G00 Z2.0000
G00 X1.4255 Y1.6082
G01 F60.00
G01 Z-0.1000
G01 F120.00
G01 X1.4367 Y1.5567
G01 X1.4391 Y1.5480
G01 X1.4430 Y1.5387
G01 X1.4461 Y1.5331
G01 X1.4497 Y1.5277
G01 X1.4537 Y1.5227
G01 X1.4994 Y1.4699
G01 X1.5045 Y1.4646
G01 X1.5100 Y1.4598
G01 X1.5160 Y1.4555
G01 X1.5223 Y1.4519
G01 X1.5289 Y1.4489
G01 X1.5358 Y1.4465
G01 X1.6029 Y1.4268
G01 X1.6100 Y1.4251
G01 X1.6172 Y1.4240
G01 X1.6245 Y1.4237
G01 X85.3755 Y1.4237
G01 X85.3837 Y1.4241
G01 X85.3918 Y1.4255
G01 X85.4433 Y1.4367
G01 X85.4520 Y1.4391
G01 X85.4604 Y1.4425
G01 X85.4669 Y1.4461
G01 X85.4723 Y1.4497
G01 X85.4773 Y1.4537
G01 X85.5301 Y1.4994
G01 X85.5354 Y1.5045
G01 X85.5402 Y1.5100
G01 X85.5445 Y1.5160
G01 X85.5481 Y1.5223
G01 X85.5511 Y1.5289
G01 X85.5535 Y1.5358
G01 X85.5732 Y1.6029
G01 X85.5749 Y1.6100
G01 X85.5760 Y1.6172
G01 X85.5763 Y1.6245
G01 X85.5763 Y55.3755
G01 X85.5759 Y55.3837
G01 X85.5745 Y55.3918
G01 X85.5633 Y55.4433
G01 X85.5609 Y55.4520
G01 X85.5575 Y55.4604
G01 X85.5539 Y55.4669
G01 X85.5503 Y55.4723
G01 X85.5463 Y55.4773
G01 X85.5006 Y55.5301
G01 X85.4955 Y55.5354
G01 X85.4900 Y55.5402
G01 X85.4840 Y55.5445
G01 X85.4777 Y55.5481
G01 X85.4711 Y55.5511
G01 X85.4642 Y55.5535
G01 X85.3971 Y55.5732
G01 X85.3900 Y55.5749
G01 X85.3828 Y55.5760
G01 X85.3755 Y55.5763
G01 X1.6245 Y55.5763
G01 X1.6163 Y55.5759
G01 X1.6082 Y55.5745
G01 X1.5567 Y55.5633
G01 X1.5480 Y55.5609
G01 X1.5396 Y55.5575
G01 X1.5331 Y55.5539
G01 X1.5277 Y55.5503
G01 X1.5227 Y55.5463
G01 X1.4699 Y55.5006
G01 X1.4646 Y55.4955
G01 X1.4598 Y55.4900
G01 X1.4555 Y55.4840
G01 X1.4519 Y55.4777
G01 X1.4489 Y55.4711
G01 X1.4465 Y55.4642
G01 X1.4268 Y55.3971
G01 X1.4251 Y55.3900
G01 X1.4240 Y55.3828
G01 X1.4237 Y55.3755
G01 X1.4237 Y1.6245
G01 X1.4241 Y1.6163
G01 X1.4255 Y1.6082
G00 Z2.0000
G00 X16.1531 Y17.8306
G01 F60.00
G01 Z-0.1000
G01 F120.00
G01 X16.1344 Y17.8406
G01 X16.1169 Y17.8523
G01 X16.1006 Y17.8657
G01 X16.0857 Y17.8806
G01 X16.0723 Y17.8969
G01 X16.0606 Y17.9144
G01 X16.0506 Y17.9331
G01 X16.0417 Y17.9550
G01 X16.0352 Y17.9779
G01 X16.0313 Y18.0013
G01 X16.0300 Y18.0250
G01 X16.0300 Y18.4600
G01 X15.9600 Y18.4600
G01 X15.9600 Y17.9887
G01 X15.9623 Y17.9675
G01 X15.9923 Y17.8870
G01 X16.0414 Y17.8214
G01 X16.1070 Y17.7723
G01 X16.1875 Y17.7423
G01 X16.2087 Y17.7400
G01 X16.6800 Y17.7400
G01 X16.6800 Y17.8100
G01 X16.2450 Y17.8100
G01 X16.2213 Y17.8113
G01 X16.1979 Y17.8152
G01 X16.1750 Y17.8217
G01 X16.1531 Y17.8306
G00 Z2.0000
G00 X16.2122 Y17.9556
G01 F60.00
G01 Z-0.1000
G01 F120.00
G01 X16.2055 Y17.9591
G01 X16.1993 Y17.9633
G01 X16.1934 Y17.9681
G01 X16.1881 Y17.9734
G01 X16.1833 Y17.9793
G01 X16.1791 Y17.9855
G01 X16.1756 Y17.9922
G01 X16.1724 Y18.0000
G01 X16.1701 Y18.0082
G01 X16.1687 Y18.0165
G01 X16.1682 Y18.0250
G01 X16.1682 Y18.5982
G01 X15.8218 Y18.5982
G01 X15.8218 Y17.9813
G01 X15.8267 Y17.9354
G01 X15.8697 Y17.8201
G01 X15.9427 Y17.7227
G01 X16.0401 Y17.6497
G01 X16.1554 Y17.6067
G01 X16.2013 Y17.6018
G01 X16.8182 Y17.6018
G01 X16.8182 Y17.9482
G01 X16.2450 Y17.9482
G01 X16.2365 Y17.9487
G01 X16.2282 Y17.9501
G01 X16.2200 Y17.9524
G01 X16.2122 Y17.9556
G00 Z2.0000
G00 X17.4718 Y17.9482
G01 F60.00
G01 Z-0.1000
G01 F120.00
G01 X17.4718 Y17.6018
G01 X18.0887 Y17.6018
G01 X18.1346 Y17.6067
G01 X18.2499 Y17.6497
G01 X18.3473 Y17.7227
G01 X18.4203 Y17.8201
G01 X18.4465 Y17.8903
G01 X18.4493 Y17.8969
G01 X18.4527 Y17.9031
G01 X18.4567 Y17.9090
G01 X18.4986 Y17.9649
G01 X18.5033 Y17.9706
G01 X18.5084 Y17.9757
G01 X18.5141 Y17.9804
G01 X18.5201 Y17.9845
G01 X18.5265 Y17.9880
G01 X18.5332 Y17.9909
G01 X18.6026 Y18.0166
G01 X18.6103 Y18.0186
G01 X18.6181 Y18.0198
G01 X18.6261 Y18.0201
G01 X18.6340 Y18.0197
G01 X18.6419 Y18.0184
G01 X18.7101 Y18.0035
G01 X18.7171 Y18.0017
G01 X18.7238 Y17.9992
G01 X18.7321 Y17.9951
G01 X18.7398 Y17.9899
G01 X18.7681 Y17.9688
G01 X18.7764 Y17.9616
G01 X18.8227 Y17.9153
G01 X18.9912 Y17.7929
G01 X19.1769 Y17.6983
G01 X19.3750 Y17.6339
G01 X19.5808 Y17.6013
G01 X19.7892 Y17.6013
G01 X19.9950 Y17.6339
G01 X20.1931 Y17.6983
G01 X20.3788 Y17.7929
G01 X20.5473 Y17.9153
G01 X20.6947 Y18.0627
G01 X20.8171 Y18.2312
G01 X20.8479 Y18.2917
G01 X20.8512 Y18.2975
G01 X20.8550 Y18.3030
G01 X20.8605 Y18.3095
G01 X20.9085 Y18.3603
G01 X20.9147 Y18.3662
G01 X20.9216 Y18.3714
G01 X20.9289 Y18.3757
G01 X20.9364 Y18.3791
G01 X20.9443 Y18.3817
G01 X21.0068 Y18.3986
G01 X21.0134 Y18.4001
G01 X21.0201 Y18.4010
G01 X21.0268 Y18.4013
G01 X25.7954 Y18.4013
G01 X25.8027 Y18.4010
G01 X25.8099 Y18.3999
G01 X25.8170 Y18.3982
G01 X25.8841 Y18.3785
G01 X25.8922 Y18.3756
G01 X25.8999 Y18.3719
G01 X25.9071 Y18.3673
G01 X25.9135 Y18.3621
G01 X25.9194 Y18.3563
G01 X25.9628 Y18.3083
G01 X25.9674 Y18.3028
G01 X25.9711 Y18.2974
G01 X25.9784 Y18.2836
G01 X26.0916 Y18.1278
G01 X26.2278 Y17.9916
G01 X26.3836 Y17.8784
G01 X26.5553 Y17.7910
G01 X26.7384 Y17.7314
G01 X26.9287 Y17.7013
G01 X27.1213 Y17.7013
G01 X27.3115 Y17.7314
G01 X27.4947 Y17.7910
G01 X27.6664 Y17.8784
G01 X27.8222 Y17.9916
G01 X27.9584 Y18.1278
G01 X28.0716 Y18.2836
G01 X28.1590 Y18.4553
G01 X28.2186 Y18.6385
G01 X28.2487 Y18.8287
G01 X28.2487 Y19.0213
G01 X28.2186 Y19.2116
G01 X28.1590 Y19.3947
G01 X28.1281 Y19.4555
G01 X28.0716 Y19.5664
G01 X27.9584 Y19.7222
G01 X27.8222 Y19.8584
G01 X27.6664 Y19.9716
G01 X27.4947 Y20.0590
G01 X27.3115 Y20.1186
G01 X27.1213 Y20.1487
G01 X26.9287 Y20.1487
G01 X26.7384 Y20.1186
G01 X26.5553 Y20.0590
G01 X26.3836 Y19.9716
G01 X26.2278 Y19.8584
G01 X26.0916 Y19.7222
G01 X25.9784 Y19.5664
G01 X25.9710 Y19.5525
G01 X25.9672 Y19.5470
G01 X25.9617 Y19.5405
G01 X25.9137 Y19.4897
G01 X25.9075 Y19.4838
G01 X25.9007 Y19.4786
G01 X25.8933 Y19.4743
G01 X25.8858 Y19.4709
G01 X25.8780 Y19.4683
G01 X25.8155 Y19.4514
G01 X25.8089 Y19.4499
G01 X25.8022 Y19.4490
G01 X25.7954 Y19.4487
G01 X21.0268 Y19.4487
G01 X21.0195 Y19.4490
G01 X21.0123 Y19.4501
G01 X21.0052 Y19.4518
G01 X20.9382 Y19.4715
G01 X20.9301 Y19.4744
G01 X20.9224 Y19.4781
G01 X20.9151 Y19.4827
G01 X20.9087 Y19.4879
G01 X20.9028 Y19.4937
G01 X20.8594 Y19.5417
G01 X20.8549 Y19.5472
G01 X20.8511 Y19.5526
G01 X20.8479 Y19.5583
G01 X20.8171 Y19.6188
G01 X20.6947 Y19.7873
G01 X20.5473 Y19.9347
G01 X20.3788 Y20.0571
G01 X20.1931 Y20.1517
G01 X19.9950 Y20.2161
G01 X19.7892 Y20.2487
G01 X19.5808 Y20.2487
G01 X19.3750 Y20.2161
G01 X19.1769 Y20.1517
G01 X18.9912 Y20.0571
G01 X18.8227 Y19.9347
G01 X18.7764 Y19.8884
G01 X18.7710 Y19.8835
G01 X18.7651 Y19.8791
G01 X18.7589 Y19.8753
G01 X18.6976 Y19.8418
G01 X18.6915 Y19.8388
G01 X18.6851 Y19.8364
G01 X18.6771 Y19.8342
G01 X18.6690 Y19.8328
G01 X18.6608 Y19.8324
G01 X18.5856 Y19.8376
G01 X18.5788 Y19.8384
G01 X18.5720 Y19.8398
G01 X18.5655 Y19.8418
G01 X18.5583 Y19.8447
G01 X18.5515 Y19.8484
G01 X18.5450 Y19.8527
G01 X18.4891 Y19.8946
G01 X18.4822 Y19.9004
G01 X18.4782 Y19.9045
G01 X18.4725 Y19.9116
G01 X18.4677 Y19.9192
G01 X18.4508 Y19.9502
G01 X18.4463 Y19.9602
G01 X18.4203 Y20.0299
G01 X18.3473 Y20.1273
G01 X18.2499 Y20.2003
G01 X18.1346 Y20.2433
G01 X18.0887 Y20.2482
G01 X17.4718 Y20.2482
G01 X17.4718 Y19.9018
G01 X18.0450 Y19.9018
G01 X18.0518 Y19.9015
G01 X18.0585 Y19.9006
G01 X18.0651 Y19.8991
G01 X18.0716 Y19.8971
G01 X18.0778 Y19.8944
G01 X18.0845 Y19.8909
G01 X18.0908 Y19.8867
G01 X18.0966 Y19.8819
G01 X18.1019 Y19.8766
G01 X18.1067 Y19.8708
G01 X18.1109 Y19.8645
G01 X18.1144 Y19.8578
G01 X18.1171 Y19.8516
G01 X18.1191 Y19.8451
G01 X18.1206 Y19.8385
G01 X18.1215 Y19.8318
G01 X18.1218 Y19.8250
G01 X18.1218 Y18.0250
G01 X18.1213 Y18.0165
G01 X18.1199 Y18.0082
G01 X18.1176 Y18.0000
G01 X18.1144 Y17.9922
G01 X18.1109 Y17.9855
G01 X18.1067 Y17.9793
G01 X18.1019 Y17.9734
G01 X18.0966 Y17.9681
G01 X18.0907 Y17.9633
G01 X18.0845 Y17.9591
G01 X18.0778 Y17.9556
G01 X18.0700 Y17.9524
G01 X18.0618 Y17.9501
G01 X18.0535 Y17.9487
G01 X18.0450 Y17.9482
G01 X17.4718 Y17.9482
G00 Z2.0000
G00 X17.6100 Y17.8100
G01 F60.00
G01 Z-0.1000
G01 F120.00
G01 X17.6100 Y17.7400
G01 X18.0813 Y17.7400
G01 X18.1025 Y17.7423
G01 X18.1830 Y17.7723
G01 X18.2486 Y17.8214
G01 X18.2977 Y17.8870
G01 X18.3173 Y17.9396
G01 X18.3253 Y17.9579
G01 X18.3349 Y17.9753
G01 X18.3461 Y17.9918
G01 X18.3879 Y18.0478
G01 X18.4010 Y18.0636
G01 X18.4154 Y18.0780
G01 X18.4312 Y18.0911
G01 X18.4482 Y18.1025
G01 X18.4661 Y18.1123
G01 X18.4849 Y18.1204
G01 X18.5504 Y18.1448
G01 X18.5505 Y18.1445
G01 X18.5612 Y18.1485
G01 X18.5828 Y18.1541
G01 X18.6048 Y18.1574
G01 X18.6270 Y18.1584
G01 X18.6493 Y18.1570
G01 X18.6713 Y18.1534
G01 X18.7395 Y18.1386
G01 X18.7589 Y18.1334
G01 X18.7777 Y18.1265
G01 X18.8010 Y18.1149
G01 X18.8227 Y18.1006
G01 X18.8509 Y18.0795
G01 X18.8741 Y18.0594
G01 X18.9127 Y18.0208
G01 X19.0637 Y17.9111
G01 X19.2299 Y17.8264
G01 X19.4074 Y17.7687
G01 X19.5917 Y17.7395
G01 X19.7783 Y17.7395
G01 X19.9626 Y17.7687
G01 X20.1401 Y17.8264
G01 X20.3063 Y17.9111
G01 X20.4573 Y18.0208
G01 X20.5892 Y18.1527
G01 X20.6989 Y18.3037
G01 X20.7248 Y18.3544
G01 X20.7340 Y18.3708
G01 X20.7447 Y18.3863
G01 X20.7600 Y18.4044
G01 X20.8080 Y18.4552
G01 X20.8254 Y18.4717
G01 X20.8446 Y18.4862
G01 X20.8652 Y18.4984
G01 X20.8862 Y18.5080
G01 X20.9082 Y18.5152
G01 X20.9707 Y18.5321
G01 X20.9892 Y18.5362
G01 X21.0079 Y18.5387
G01 X21.0268 Y18.5395
G01 X25.7954 Y18.5395
G01 X25.8158 Y18.5386
G01 X25.8361 Y18.5357
G01 X25.8560 Y18.5308
G01 X25.9230 Y18.5111
G01 X25.9457 Y18.5031
G01 X25.9673 Y18.4926
G01 X25.9875 Y18.4797
G01 X26.0055 Y18.4653
G01 X26.0219 Y18.4491
G01 X26.0653 Y18.4011
G01 X26.0781 Y18.3856
G01 X26.0885 Y18.3704
G01 X26.0962 Y18.3567
G01 X26.1971 Y18.2179
G01 X26.3179 Y18.0971
G01 X26.4561 Y17.9966
G01 X26.6083 Y17.9191
G01 X26.7708 Y17.8663
G01 X26.9396 Y17.8395
G01 X27.1104 Y17.8395
G01 X27.2792 Y17.8663
G01 X27.4417 Y17.9191
G01 X27.5939 Y17.9966
G01 X27.7321 Y18.0971
G01 X27.8529 Y18.2179
G01 X27.9534 Y18.3561
G01 X28.0309 Y18.5083
G01 X28.0837 Y18.6708
G01 X28.1105 Y18.8396
G01 X28.1105 Y19.0104
G01 X28.0837 Y19.1792
G01 X28.0309 Y19.3417
G01 X28.0049 Y19.3928
G01 X27.9534 Y19.4939
G01 X27.8529 Y19.6321
G01 X27.7321 Y19.7529
G01 X27.5939 Y19.8534
G01 X27.4417 Y19.9309
G01 X27.2792 Y19.9837
G01 X27.1104 Y20.0105
G01 X26.9396 Y20.0105
G01 X26.7708 Y19.9837
G01 X26.6083 Y19.9309
G01 X26.4561 Y19.8534
G01 X26.3179 Y19.7529
G01 X26.1971 Y19.6321
G01 X26.0962 Y19.4933
G01 X26.0882 Y19.4792
G01 X26.0776 Y19.4637
G01 X26.0622 Y19.4456
G01 X26.0142 Y19.3948
G01 X25.9968 Y19.3783
G01 X25.9777 Y19.3638
G01 X25.9570 Y19.3516
G01 X25.9360 Y19.3420
G01 X25.9141 Y19.3348
G01 X25.8515 Y19.3179
G01 X25.8331 Y19.3138
G01 X25.8143 Y19.3113
G01 X25.7954 Y19.3105
G01 X21.0268 Y19.3105
G01 X21.0064 Y19.3114
G01 X20.9861 Y19.3143
G01 X20.9663 Y19.3192
G01 X20.8992 Y19.3389
G01 X20.8766 Y19.3469
G01 X20.8550 Y19.3574
G01 X20.8347 Y19.3703
G01 X20.8167 Y19.3847
G01 X20.8003 Y19.4009
G01 X20.7569 Y19.4489
G01 X20.7442 Y19.4644
G01 X20.7338 Y19.4796
G01 X20.7248 Y19.4956
G01 X20.6989 Y19.5463
G01 X20.5892 Y19.6973
G01 X20.4573 Y19.8292
G01 X20.3063 Y19.9389
G01 X20.1401 Y20.0236
G01 X19.9626 Y20.0813
G01 X19.7783 Y20.1105
G01 X19.5917 Y20.1105
G01 X19.4074 Y20.0813
G01 X19.2299 Y20.0236
G01 X19.0637 Y19.9389
G01 X18.9127 Y19.8292
G01 X18.8741 Y19.7906
G01 X18.8590 Y19.7769
G01 X18.8426 Y19.7646
G01 X18.8251 Y19.7539
G01 X18.7638 Y19.7205
G01 X18.7467 Y19.7121
G01 X18.7289 Y19.7053
G01 X18.7066 Y19.6991
G01 X18.6838 Y19.6954
G01 X18.6608 Y19.6942
G01 X18.6454 Y19.6947
G01 X18.5757 Y19.6997
G01 X18.5566 Y19.7019
G01 X18.5378 Y19.7059
G01 X18.5194 Y19.7115
G01 X18.4993 Y19.7197
G01 X18.4802 Y19.7299
G01 X18.4622 Y19.7420
G01 X18.4063 Y19.7839
G01 X18.3869 Y19.8003
G01 X18.3758 Y19.8116
G01 X18.3599 Y19.8315
G01 X18.3464 Y19.8530
G01 X18.3295 Y19.8840
G01 X18.3167 Y19.9119
G01 X18.2977 Y19.9630
G01 X18.2486 Y20.0286
G01 X18.1830 Y20.0777
G01 X18.1025 Y20.1077
G01 X18.0813 Y20.1100
G01 X17.6100 Y20.1100
G01 X17.6100 Y20.0400
G01 X18.0450 Y20.0400
G01 X18.0640 Y20.0392
G01 X18.0828 Y20.0367
G01 X18.1013 Y20.0325
G01 X18.1194 Y20.0267
G01 X18.1369 Y20.0194
G01 X18.1556 Y20.0094
G01 X18.1731 Y19.9977
G01 X18.1894 Y19.9843
G01 X18.2043 Y19.9694
G01 X18.2177 Y19.9531
G01 X18.2294 Y19.9356
G01 X18.2394 Y19.9169
G01 X18.2467 Y19.8994
G01 X18.2525 Y19.8813
G01 X18.2567 Y19.8628
G01 X18.2592 Y19.8440
G01 X18.2600 Y19.8250
G01 X18.2600 Y18.0250
G01 X18.2587 Y18.0013
G01 X18.2548 Y17.9779
G01 X18.2483 Y17.9550
G01 X18.2394 Y17.9331
G01 X18.2294 Y17.9144
G01 X18.2177 Y17.8969
G01 X18.2043 Y17.8806
G01 X18.1894 Y17.8657
G01 X18.1731 Y17.8523
G01 X18.1556 Y17.8406
G01 X18.1369 Y17.8306
G01 X18.1150 Y17.8217
G01 X18.0921 Y17.8152
G01 X18.0687 Y17.8113
G01 X18.0450 Y17.8100
G01 X17.6100 Y17.8100
G00 Z2.0000
G00 X18.4371 Y19.0305
G01 F60.00
G01 Z-0.1000
G01 F120.00
G01 X18.4399 Y19.0651
G01 X18.4535 Y19.1567
G01 X18.4596 Y19.1864
G01 X18.4811 Y19.2721
G01 X18.4911 Y19.3053
G01 X18.5209 Y19.3884
G01 X18.5341 Y19.4205
G01 X18.5719 Y19.5003
G01 X18.5883 Y19.5309
G01 X18.6051 Y19.5590
G01 X18.5659 Y19.5618
G01 X18.5345 Y19.5655
G01 X18.5035 Y19.5719
G01 X18.4733 Y19.5811
G01 X18.4403 Y19.5947
G01 X18.4089 Y19.6115
G01 X18.3983 Y19.6186
G01 X18.3983 Y18.2326
G01 X18.4057 Y18.2367
G01 X18.4366 Y18.2499
G01 X18.5021 Y18.2743
G01 X18.5023 Y18.2739
G01 X18.5198 Y18.2804
G01 X18.5552 Y18.2895
G01 X18.5914 Y18.2949
G01 X18.6024 Y18.2954
G01 X18.5883 Y18.3191
G01 X18.5719 Y18.3497
G01 X18.5341 Y18.4295
G01 X18.5209 Y18.4616
G01 X18.4911 Y18.5447
G01 X18.4915 Y18.5449
G01 X18.4811 Y18.5779
G01 X18.4596 Y18.6636
G01 X18.4535 Y18.6933
G01 X18.4399 Y18.7849
G01 X18.4365 Y18.8194
G01 X18.4321 Y18.9077
G01 X18.4321 Y18.9423
G01 X18.4365 Y19.0306
G01 X18.4371 Y19.0305
G00 Z2.0000
G00 X18.5749 Y19.0237
G01 F60.00
G01 Z-0.1000
G01 F120.00
G01 X18.5746 Y19.0238
G01 X18.5702 Y18.9356
G01 X18.5702 Y18.9144
G01 X18.5746 Y18.8262
G01 X18.5766 Y18.8052
G01 X18.5900 Y18.7153
G01 X18.5937 Y18.6972
G01 X18.6152 Y18.6115
G01 X18.6213 Y18.5913
G01 X18.6510 Y18.5081
G01 X18.6591 Y18.4886
G01 X18.6969 Y18.4088
G01 X18.7068 Y18.3902
G01 X18.7522 Y18.3144
G01 X18.7629 Y18.2983
G01 X18.8166 Y18.2259
G01 X18.8303 Y18.2099
G01 X18.8300 Y18.2096
G01 X18.8893 Y18.1442
G01 X18.9042 Y18.1293
G01 X18.9696 Y18.0700
G01 X18.9859 Y18.0566
G01 X19.0569 Y18.0040
G01 X19.0744 Y17.9922
G01 X19.1502 Y17.9468
G01 X19.1688 Y17.9369
G01 X19.2486 Y17.8991
G01 X19.2681 Y17.8910
G01 X19.3513 Y17.8613
G01 X19.3715 Y17.8552
G01 X19.4572 Y17.8337
G01 X19.4753 Y17.8300
G01 X19.5652 Y17.8166
G01 X19.5863 Y17.8149
G01 X19.5862 Y17.8146
G01 X19.6744 Y17.8102
G01 X19.6956 Y17.8102
G01 X19.7838 Y17.8146
G01 X19.8048 Y17.8166
G01 X19.8921 Y17.8296
G01 X19.9128 Y17.8337
G01 X19.9985 Y17.8552
G01 X20.0186 Y17.8615
G01 X20.0187 Y17.8613
G01 X20.1019 Y17.8910
G01 X20.1214 Y17.8991
G01 X20.2012 Y17.9369
G01 X20.2198 Y17.9468
G01 X20.2956 Y17.9922
G01 X20.3131 Y18.0040
G01 X20.3841 Y18.0566
G01 X20.4001 Y18.0703
G01 X20.4004 Y18.0700
G01 X20.4658 Y18.1293
G01 X20.4807 Y18.1442
G01 X20.5400 Y18.2096
G01 X20.5534 Y18.2259
G01 X20.6060 Y18.2969
G01 X20.6178 Y18.3144
G01 X20.6632 Y18.3902
G01 X20.6731 Y18.4088
G01 X20.7109 Y18.4886
G01 X20.7190 Y18.5081
G01 X20.7487 Y18.5913
G01 X20.7544 Y18.6099
G01 X26.0607 Y18.6099
G01 X26.0834 Y18.5464
G01 X26.0915 Y18.5269
G01 X26.1251 Y18.4559
G01 X26.1350 Y18.4373
G01 X26.1754 Y18.3700
G01 X26.1861 Y18.3539
G01 X26.2339 Y18.2894
G01 X26.2476 Y18.2733
G01 X26.2473 Y18.2731
G01 X26.3000 Y18.2149
G01 X26.3149 Y18.2000
G01 X26.3731 Y18.1473
G01 X26.3894 Y18.1339
G01 X26.4524 Y18.0871
G01 X26.4700 Y18.0754
G01 X26.5373 Y18.0350
G01 X26.5559 Y18.0251
G01 X26.6269 Y17.9915
G01 X26.6464 Y17.9834
G01 X26.7203 Y17.9570
G01 X26.7405 Y17.9509
G01 X26.8167 Y17.9318
G01 X26.8348 Y17.9281
G01 X26.9150 Y17.9161
G01 X26.9361 Y17.9144
G01 X26.9360 Y17.9141
G01 X27.0144 Y17.9102
G01 X27.0356 Y17.9102
G01 X27.1140 Y17.9141
G01 X27.1350 Y17.9161
G01 X27.2126 Y17.9277
G01 X27.2333 Y17.9318
G01 X27.3095 Y17.9509
G01 X27.3297 Y17.9570
G01 X27.4036 Y17.9834
G01 X27.4231 Y17.9915
G01 X27.4941 Y18.0251
G01 X27.5127 Y18.0350
G01 X27.5800 Y18.0754
G01 X27.5961 Y18.0861
G01 X27.6606 Y18.1339
G01 X27.6767 Y18.1476
G01 X27.6769 Y18.1473
G01 X27.7351 Y18.2000
G01 X27.7500 Y18.2149
G01 X27.8027 Y18.2731
G01 X27.8161 Y18.2894
G01 X27.8629 Y18.3524
G01 X27.8746 Y18.3700
G01 X27.9150 Y18.4373
G01 X27.9249 Y18.4559
G01 X27.9585 Y18.5269
G01 X27.9666 Y18.5464
G01 X27.9930 Y18.6203
G01 X27.9991 Y18.6405
G01 X28.0182 Y18.7167
G01 X28.0219 Y18.7348
G01 X28.0339 Y18.8150
G01 X28.0356 Y18.8361
G01 X28.0359 Y18.8360
G01 X28.0398 Y18.9144
G01 X28.0398 Y18.9356
G01 X28.0359 Y19.0140
G01 X28.0339 Y19.0350
G01 X28.0223 Y19.1126
G01 X28.0182 Y19.1333
G01 X27.9991 Y19.2095
G01 X27.9928 Y19.2296
G01 X27.9930 Y19.2297
G01 X27.9666 Y19.3036
G01 X27.9585 Y19.3231
G01 X27.9249 Y19.3941
G01 X27.9150 Y19.4127
G01 X27.8746 Y19.4800
G01 X27.8639 Y19.4961
G01 X27.8161 Y19.5606
G01 X27.8024 Y19.5767
G01 X27.8027 Y19.5769
G01 X27.7500 Y19.6351
G01 X27.7351 Y19.6500
G01 X27.6769 Y19.7027
G01 X27.6606 Y19.7161
G01 X27.5976 Y19.7629
G01 X27.5800 Y19.7746
G01 X27.5127 Y19.8150
G01 X27.4941 Y19.8249
G01 X27.4231 Y19.8585
G01 X27.4036 Y19.8666
G01 X27.3297 Y19.8930
G01 X27.3095 Y19.8991
G01 X27.2333 Y19.9182
G01 X27.2152 Y19.9219
G01 X27.1350 Y19.9339
G01 X27.1139 Y19.9356
G01 X27.1140 Y19.9359
G01 X27.0356 Y19.9398
G01 X27.0144 Y19.9398
G01 X26.9360 Y19.9359
G01 X26.9150 Y19.9339
G01 X26.8374 Y19.9223
G01 X26.8167 Y19.9182
G01 X26.7405 Y19.8991
G01 X26.7203 Y19.8930
G01 X26.6464 Y19.8666
G01 X26.6269 Y19.8585
G01 X26.5559 Y19.8249
G01 X26.5373 Y19.8150
G01 X26.4700 Y19.7746
G01 X26.4539 Y19.7639
G01 X26.3894 Y19.7161
G01 X26.3733 Y19.7024
G01 X26.3731 Y19.7027
G01 X26.3149 Y19.6500
G01 X26.3000 Y19.6351
G01 X26.2473 Y19.5769
G01 X26.2339 Y19.5606
G01 X26.1871 Y19.4976
G01 X26.1754 Y19.4800
G01 X26.1350 Y19.4127
G01 X26.1251 Y19.3941
G01 X26.0915 Y19.3231
G01 X26.0834 Y19.3036
G01 X26.0607 Y19.2401
G01 X20.7543 Y19.2401
G01 X20.7487 Y19.2587
G01 X20.7190 Y19.3419
G01 X20.7109 Y19.3614
G01 X20.6731 Y19.4412
G01 X20.6632 Y19.4598
G01 X20.6178 Y19.5356
G01 X20.6071 Y19.5517
G01 X20.5534 Y19.6241
G01 X20.5397 Y19.6401
G01 X20.5400 Y19.6404
G01 X20.4807 Y19.7058
G01 X20.4658 Y19.7207
G01 X20.4004 Y19.7800
G01 X20.3841 Y19.7934
G01 X20.3131 Y19.8460
G01 X20.2956 Y19.8578
G01 X20.2198 Y19.9032
G01 X20.2012 Y19.9131
G01 X20.1214 Y19.9509
G01 X20.1019 Y19.9590
G01 X20.0187 Y19.9887
G01 X19.9985 Y19.9948
G01 X19.9128 Y20.0163
G01 X19.8947 Y20.0200
G01 X19.8048 Y20.0334
G01 X19.7837 Y20.0351
G01 X19.7838 Y20.0354
G01 X19.6956 Y20.0398
G01 X19.6744 Y20.0398
G01 X19.5862 Y20.0354
G01 X19.5652 Y20.0334
G01 X19.4779 Y20.0204
G01 X19.4572 Y20.0163
G01 X19.3715 Y19.9948
G01 X19.3513 Y19.9887
G01 X19.2681 Y19.9590
G01 X19.2486 Y19.9509
G01 X19.1688 Y19.9131
G01 X19.1502 Y19.9032
G01 X19.0744 Y19.8578
G01 X19.0583 Y19.8471
G01 X18.9859 Y19.7934
G01 X18.9699 Y19.7797
G01 X18.9696 Y19.7800
G01 X18.9042 Y19.7207
G01 X18.8893 Y19.7058
G01 X18.8300 Y19.6404
G01 X18.8166 Y19.6241
G01 X18.7640 Y19.5531
G01 X18.7522 Y19.5356
G01 X18.7068 Y19.4598
G01 X18.6969 Y19.4412
G01 X18.6591 Y19.3614
G01 X18.6510 Y19.3419
G01 X18.6213 Y19.2587
G01 X18.6152 Y19.2385
G01 X18.5937 Y19.1528
G01 X18.5900 Y19.1347
G01 X18.5766 Y19.0448
G01 X18.5749 Y19.0237
G00 Z2.0000
G00 X18.7128 Y19.0170
G01 F60.00
G01 Z-0.1000
G01 F120.00
G01 X18.7083 Y18.9288
G01 X18.7083 Y18.9212
G01 X18.7126 Y18.8330
G01 X18.7134 Y18.8255
G01 X18.7265 Y18.7372
G01 X18.7278 Y18.7308
G01 X18.7493 Y18.6451
G01 X18.7514 Y18.6379
G01 X18.7812 Y18.5547
G01 X18.7841 Y18.5477
G01 X18.8218 Y18.4679
G01 X18.8254 Y18.4613
G01 X18.8708 Y18.3855
G01 X18.8746 Y18.3797
G01 X18.9276 Y18.3083
G01 X18.9324 Y18.3025
G01 X18.9917 Y18.2370
G01 X18.9970 Y18.2317
G01 X19.0625 Y18.1724
G01 X19.0683 Y18.1676
G01 X19.1392 Y18.1150
G01 X19.1455 Y18.1108
G01 X19.2213 Y18.0654
G01 X19.2279 Y18.0618
G01 X19.3077 Y18.0241
G01 X19.3147 Y18.0212
G01 X19.3979 Y17.9914
G01 X19.4051 Y17.9893
G01 X19.4908 Y17.9678
G01 X19.4972 Y17.9665
G01 X19.5855 Y17.9534
G01 X19.5930 Y17.9526
G01 X19.6812 Y17.9483
G01 X19.6888 Y17.9483
G01 X19.7770 Y17.9526
G01 X19.7845 Y17.9534
G01 X19.8719 Y17.9663
G01 X19.8792 Y17.9678
G01 X19.9649 Y17.9893
G01 X19.9721 Y17.9914
G01 X20.0553 Y18.0212
G01 X20.0623 Y18.0241
G01 X20.1421 Y18.0618
G01 X20.1487 Y18.0654
G01 X20.2245 Y18.1108
G01 X20.2303 Y18.1146
G01 X20.3017 Y18.1676
G01 X20.3075 Y18.1724
G01 X20.3730 Y18.2317
G01 X20.3783 Y18.2370
G01 X20.4376 Y18.3025
G01 X20.4424 Y18.3083
G01 X20.4950 Y18.3792
G01 X20.4992 Y18.3855
G01 X20.5446 Y18.4613
G01 X20.5482 Y18.4679
G01 X20.5859 Y18.5477
G01 X20.5888 Y18.5547
G01 X20.6186 Y18.6379
G01 X20.6207 Y18.6451
G01 X20.6422 Y18.7308
G01 X20.6452 Y18.7481
G01 X26.1664 Y18.7481
G01 X26.1849 Y18.6741
G01 X26.1871 Y18.6669
G01 X26.2136 Y18.5930
G01 X26.2165 Y18.5860
G01 X26.2500 Y18.5150
G01 X26.2536 Y18.5084
G01 X26.2940 Y18.4411
G01 X26.2978 Y18.4353
G01 X26.3449 Y18.3717
G01 X26.3497 Y18.3659
G01 X26.4024 Y18.3077
G01 X26.4077 Y18.3024
G01 X26.4659 Y18.2497
G01 X26.4717 Y18.2449
G01 X26.5348 Y18.1981
G01 X26.5411 Y18.1940
G01 X26.6084 Y18.1536
G01 X26.6150 Y18.1500
G01 X26.6860 Y18.1165
G01 X26.6930 Y18.1136
G01 X26.7669 Y18.0871
G01 X26.7741 Y18.0849
G01 X26.8503 Y18.0659
G01 X26.8567 Y18.0645
G01 X26.9353 Y18.0529
G01 X26.9428 Y18.0521
G01 X27.0212 Y18.0483
G01 X27.0288 Y18.0483
G01 X27.1072 Y18.0521
G01 X27.1147 Y18.0529
G01 X27.1923 Y18.0644
G01 X27.1997 Y18.0659
G01 X27.2759 Y18.0849
G01 X27.2831 Y18.0871
G01 X27.3570 Y18.1136
G01 X27.3640 Y18.1165
G01 X27.4350 Y18.1500
G01 X27.4416 Y18.1536
G01 X27.5089 Y18.1940
G01 X27.5147 Y18.1978
G01 X27.5783 Y18.2449
G01 X27.5841 Y18.2497
G01 X27.6423 Y18.3024
G01 X27.6476 Y18.3077
G01 X27.7003 Y18.3659
G01 X27.7051 Y18.3717
G01 X27.7519 Y18.4348
G01 X27.7560 Y18.4411
G01 X27.7964 Y18.5084
G01 X27.8000 Y18.5150
G01 X27.8335 Y18.5860
G01 X27.8364 Y18.5930
G01 X27.8629 Y18.6669
G01 X27.8651 Y18.6741
G01 X27.8841 Y18.7503
G01 X27.8855 Y18.7567
G01 X27.8971 Y18.8353
G01 X27.8979 Y18.8428
G01 X27.9017 Y18.9212
G01 X27.9017 Y18.9288
G01 X27.8979 Y19.0072
G01 X27.8971 Y19.0147
G01 X27.8856 Y19.0923
G01 X27.8841 Y19.0997
G01 X27.8651 Y19.1759
G01 X27.8629 Y19.1831
G01 X27.8364 Y19.2570
G01 X27.8335 Y19.2640
G01 X27.8000 Y19.3350
G01 X27.7964 Y19.3416
G01 X27.7560 Y19.4089
G01 X27.7522 Y19.4147
G01 X27.7051 Y19.4783
G01 X27.7003 Y19.4841
G01 X27.6476 Y19.5423
G01 X27.6423 Y19.5476
G01 X27.5841 Y19.6003
G01 X27.5783 Y19.6051
G01 X27.5152 Y19.6519
G01 X27.5089 Y19.6560
G01 X27.4416 Y19.6964
G01 X27.4350 Y19.7000
G01 X27.3640 Y19.7335
G01 X27.3570 Y19.7364
G01 X27.2831 Y19.7629
G01 X27.2759 Y19.7651
G01 X27.1997 Y19.7841
G01 X27.1933 Y19.7855
G01 X27.1147 Y19.7971
G01 X27.1072 Y19.7979
G01 X27.0288 Y19.8017
G01 X27.0212 Y19.8017
G01 X26.9428 Y19.7979
G01 X26.9353 Y19.7971
G01 X26.8577 Y19.7856
G01 X26.8503 Y19.7841
G01 X26.7741 Y19.7651
G01 X26.7669 Y19.7629
G01 X26.6930 Y19.7364
G01 X26.6860 Y19.7335
G01 X26.6150 Y19.7000
G01 X26.6084 Y19.6964
G01 X26.5411 Y19.6560
G01 X26.5353 Y19.6522
G01 X26.4717 Y19.6051
G01 X26.4659 Y19.6003
G01 X26.4077 Y19.5476
G01 X26.4024 Y19.5423
G01 X26.3497 Y19.4841
G01 X26.3449 Y19.4783
G01 X26.2981 Y19.4152
G01 X26.2940 Y19.4089
G01 X26.2536 Y19.3416
G01 X26.2500 Y19.3350
G01 X26.2165 Y19.2640
G01 X26.2136 Y19.2570
G01 X26.1871 Y19.1831
G01 X26.1849 Y19.1759
G01 X26.1664 Y19.1019
G01 X20.6452 Y19.1019
G01 X20.6422 Y19.1192
G01 X20.6207 Y19.2049
G01 X20.6186 Y19.2121
G01 X20.5888 Y19.2953
G01 X20.5859 Y19.3023
G01 X20.5482 Y19.3821
G01 X20.5446 Y19.3887
G01 X20.4992 Y19.4645
G01 X20.4954 Y19.4703
G01 X20.4424 Y19.5417
G01 X20.4376 Y19.5475
G01 X20.3783 Y19.6130
G01 X20.3730 Y19.6183
G01 X20.3075 Y19.6776
G01 X20.3017 Y19.6824
G01 X20.2308 Y19.7350
G01 X20.2245 Y19.7392
G01 X20.1487 Y19.7846
G01 X20.1421 Y19.7882
G01 X20.0623 Y19.8259
G01 X20.0553 Y19.8288
G01 X19.9721 Y19.8586
G01 X19.9649 Y19.8607
G01 X19.8792 Y19.8822
G01 X19.8728 Y19.8835
G01 X19.7845 Y19.8966
G01 X19.7770 Y19.8974
G01 X19.6888 Y19.9017
G01 X19.6812 Y19.9017
G01 X19.5930 Y19.8974
G01 X19.5855 Y19.8966
G01 X19.4981 Y19.8837
G01 X19.4908 Y19.8822
G01 X19.4051 Y19.8607
G01 X19.3979 Y19.8586
G01 X19.3147 Y19.8288
G01 X19.3077 Y19.8259
G01 X19.2279 Y19.7882
G01 X19.2213 Y19.7846
G01 X19.1455 Y19.7392
G01 X19.1397 Y19.7354
G01 X19.0683 Y19.6824
G01 X19.0625 Y19.6776
G01 X18.9970 Y19.6183
G01 X18.9917 Y19.6130
G01 X18.9324 Y19.5475
G01 X18.9276 Y19.5417
G01 X18.8750 Y19.4708
G01 X18.8708 Y19.4645
G01 X18.8254 Y19.3887
G01 X18.8218 Y19.3821
G01 X18.7841 Y19.3023
G01 X18.7812 Y19.2953
G01 X18.7514 Y19.2121
G01 X18.7493 Y19.2049
G01 X18.7278 Y19.1192
G01 X18.7263 Y19.1119
G01 X18.7134 Y19.0245
G01 X18.7128 Y19.0170
G00 Z2.0000
G00 X16.1682 Y19.8250
G01 F60.00
G01 Z-0.1000
G01 F120.00
G01 X16.1685 Y19.8318
G01 X16.1694 Y19.8385
G01 X16.1709 Y19.8451
G01 X16.1729 Y19.8516
G01 X16.1756 Y19.8578
G01 X16.1791 Y19.8645
G01 X16.1833 Y19.8708
G01 X16.1881 Y19.8766
G01 X16.1934 Y19.8819
G01 X16.1993 Y19.8867
G01 X16.2055 Y19.8909
G01 X16.2122 Y19.8944
G01 X16.2200 Y19.8976
G01 X16.2282 Y19.8999
G01 X16.2365 Y19.9013
G01 X16.2450 Y19.9018
G01 X16.8182 Y19.9018
G01 X16.8182 Y20.2482
G01 X16.2013 Y20.2482
G01 X16.1554 Y20.2433
G01 X16.0401 Y20.2003
G01 X15.9427 Y20.1273
G01 X15.8697 Y20.0299
G01 X15.8267 Y19.9146
G01 X15.8218 Y19.8687
G01 X15.8218 Y19.2518
G01 X16.1682 Y19.2518
G01 X16.1682 Y19.8250
G00 Z2.0000
G00 X16.0300 Y19.8250
G01 F60.00
G01 Z-0.1000
G01 F120.00
G01 X16.0308 Y19.8440
G01 X16.0333 Y19.8628
G01 X16.0375 Y19.8813
G01 X16.0433 Y19.8994
G01 X16.0506 Y19.9169
G01 X16.0606 Y19.9356
G01 X16.0723 Y19.9531
G01 X16.0857 Y19.9694
G01 X16.1006 Y19.9843
G01 X16.1169 Y19.9977
G01 X16.1344 Y20.0094
G01 X16.1531 Y20.0194
G01 X16.1750 Y20.0283
G01 X16.1979 Y20.0348
G01 X16.2213 Y20.0387
G01 X16.2450 Y20.0400
G01 X16.6800 Y20.0400
G01 X16.6800 Y20.1100
G01 X16.2087 Y20.1100
G01 X16.1875 Y20.1077
G01 X16.1070 Y20.0777
G01 X16.0414 Y20.0286
G01 X15.9923 Y19.9630
G01 X15.9623 Y19.8825
G01 X15.9600 Y19.8613
G01 X15.9600 Y19.3900
G01 X16.0300 Y19.3900
G01 X16.0300 Y19.8250
G00 Z2.0000
G00 X16.3224 Y27.3602
G01 F60.00
G01 Z-0.1000
G01 F120.00
G01 X16.4921 Y27.2737
G01 X16.6901 Y27.2094
G01 X16.8231 Y27.1883
G01 X16.8231 Y27.5398
G01 X16.8058 Y27.5428
G01 X16.7201 Y27.5643
G01 X16.7129 Y27.5664
G01 X16.6297 Y27.5962
G01 X16.6227 Y27.5991
G01 X16.5810 Y27.6188
G01 X16.3224 Y27.3602
G00 Z2.0000
G00 X16.6130 Y27.4554
G01 F60.00
G01 Z-0.1000
G01 F120.00
G01 X16.5560 Y27.3983
G01 X16.6849 Y27.3564
G01 X16.6849 Y27.4306
G01 X16.6663 Y27.4363
G01 X16.6130 Y27.4554
G00 Z2.0000
G00 X17.1769 Y27.5398
G01 F60.00
G01 Z-0.1000
G01 F120.00
G01 X17.1769 Y27.1883
G01 X17.3099 Y27.2094
G01 X17.5079 Y27.2737
G01 X17.6776 Y27.3602
G01 X17.4190 Y27.6188
G01 X17.3773 Y27.5991
G01 X17.3703 Y27.5962
G01 X17.2871 Y27.5664
G01 X17.2799 Y27.5643
G01 X17.1942 Y27.5428
G01 X17.1769 Y27.5398
G00 Z2.0000
G00 X17.3151 Y27.3564
G01 F60.00
G01 Z-0.1000
G01 F120.00
G01 X17.4440 Y27.3983
G01 X17.3870 Y27.4553
G01 X17.3337 Y27.4363
G01 X17.3151 Y27.4307
G01 X17.3151 Y27.3564
G00 Z2.0000
G00 X17.8812 Y28.0810
G01 F60.00
G01 Z-0.1000
G01 F120.00
G01 X18.1398 Y27.8224
G01 X18.2263 Y27.9921
G01 X18.2906 Y28.1901
G01 X18.3232 Y28.3959
G01 X18.3232 Y28.6041
G01 X18.2906 Y28.8099
G01 X18.2263 Y29.0079
G01 X18.1398 Y29.1776
G01 X17.8812 Y28.9190
G01 X17.9009 Y28.8773
G01 X17.9038 Y28.8703
G01 X17.9336 Y28.7871
G01 X17.9357 Y28.7799
G01 X17.9572 Y28.6942
G01 X17.9587 Y28.6869
G01 X17.9716 Y28.5995
G01 X17.9724 Y28.5920
G01 X17.9767 Y28.5038
G01 X17.9767 Y28.4962
G01 X17.9724 Y28.4080
G01 X17.9716 Y28.4005
G01 X17.9587 Y28.3131
G01 X17.9572 Y28.3058
G01 X17.9357 Y28.2201
G01 X17.9336 Y28.2129
G01 X17.9038 Y28.1297
G01 X17.9009 Y28.1227
G01 X17.8812 Y28.0810
G00 Z2.0000
G00 X18.0447 Y28.1130
G01 F60.00
G01 Z-0.1000
G01 F120.00
G01 X18.1017 Y28.0560
G01 X18.1558 Y28.2225
G01 X18.1850 Y28.4067
G01 X18.1850 Y28.5933
G01 X18.1558 Y28.7775
G01 X18.1017 Y28.9440
G01 X18.0446 Y28.8870
G01 X18.0637 Y28.8337
G01 X18.0698 Y28.8135
G01 X18.0913 Y28.7278
G01 X18.0954 Y28.7071
G01 X18.1084 Y28.6198
G01 X18.1104 Y28.5988
G01 X18.1148 Y28.5106
G01 X18.1148 Y28.4894
G01 X18.1104 Y28.4012
G01 X18.1101 Y28.4013
G01 X18.1084 Y28.3802
G01 X18.0950 Y28.2903
G01 X18.0913 Y28.2722
G01 X18.0698 Y28.1865
G01 X18.0637 Y28.1663
G01 X18.0447 Y28.1130
G00 Z2.0000
G00 X16.6130 Y29.5447
G01 F60.00
G01 Z-0.1000
G01 F120.00
G01 X16.6663 Y29.5637
G01 X16.6865 Y29.5698
G01 X16.7722 Y29.5913
G01 X16.7929 Y29.5954
G01 X16.8802 Y29.6084
G01 X16.9012 Y29.6104
G01 X16.9894 Y29.6148
G01 X17.0106 Y29.6148
G01 X17.0988 Y29.6104
G01 X17.0987 Y29.6101
G01 X17.1198 Y29.6084
G01 X17.2097 Y29.5950
G01 X17.2278 Y29.5913
G01 X17.3135 Y29.5698
G01 X17.3337 Y29.5637
G01 X17.3870 Y29.5447
G01 X17.4440 Y29.6017
G01 X17.2775 Y29.6558
G01 X17.0933 Y29.6850
G01 X16.9067 Y29.6850
G01 X16.7225 Y29.6558
G01 X16.5560 Y29.6017
G01 X16.6130 Y29.5447
G00 Z2.0000
G00 X16.3224 Y29.6398
G01 F60.00
G01 Z-0.1000
G01 F120.00
G01 X16.5810 Y29.3812
G01 X16.6227 Y29.4009
G01 X16.6297 Y29.4038
G01 X16.7129 Y29.4336
G01 X16.7201 Y29.4357
G01 X16.8058 Y29.4572
G01 X16.8131 Y29.4587
G01 X16.9005 Y29.4716
G01 X16.9080 Y29.4724
G01 X16.9962 Y29.4767
G01 X17.0038 Y29.4767
G01 X17.0920 Y29.4724
G01 X17.0995 Y29.4716
G01 X17.1869 Y29.4587
G01 X17.1942 Y29.4572
G01 X17.2799 Y29.4357
G01 X17.2871 Y29.4336
G01 X17.3703 Y29.4038
G01 X17.3773 Y29.4009
G01 X17.4190 Y29.3812
G01 X17.6776 Y29.6398
G01 X17.5079 Y29.7263
G01 X17.3099 Y29.7906
G01 X17.1041 Y29.8232
G01 X16.8959 Y29.8232
G01 X16.6901 Y29.7906
G01 X16.4921 Y29.7263
G01 X16.3224 Y29.6398
G00 Z2.0000
G00 X15.8150 Y28.5933
G01 F60.00
G01 Z-0.1000
G01 F120.00
G01 X15.8150 Y28.4067
G01 X15.8442 Y28.2225
G01 X15.8983 Y28.0560
G01 X15.9553 Y28.1130
G01 X15.9363 Y28.1663
G01 X15.9302 Y28.1865
G01 X15.9087 Y28.2722
G01 X15.9046 Y28.2929
G01 X15.8916 Y28.3802
G01 X15.8896 Y28.4012
G01 X15.8852 Y28.4894
G01 X15.8852 Y28.5106
G01 X15.8896 Y28.5988
G01 X15.8899 Y28.5987
G01 X15.8916 Y28.6198
G01 X15.9050 Y28.7097
G01 X15.9087 Y28.7278
G01 X15.9302 Y28.8135
G01 X15.9363 Y28.8337
G01 X15.9553 Y28.8870
G01 X15.8983 Y28.9440
G01 X15.8442 Y28.7775
G01 X15.8150 Y28.5933
G00 Z2.0000
G00 X15.6768 Y28.6041
G01 F60.00
G01 Z-0.1000
G01 F120.00
G01 X15.6768 Y28.3959
G01 X15.7094 Y28.1901
G01 X15.7737 Y27.9921
G01 X15.8602 Y27.8224
G01 X16.1188 Y28.0810
G01 X16.0991 Y28.1227
G01 X16.0962 Y28.1297
G01 X16.0664 Y28.2129
G01 X16.0643 Y28.2201
G01 X16.0428 Y28.3058
G01 X16.0413 Y28.3131
G01 X16.0284 Y28.4005
G01 X16.0276 Y28.4080
G01 X16.0233 Y28.4962
G01 X16.0233 Y28.5038
G01 X16.0276 Y28.5920
G01 X16.0284 Y28.5995
G01 X16.0413 Y28.6869
G01 X16.0428 Y28.6942
G01 X16.0643 Y28.7799
G01 X16.0664 Y28.7871
G01 X16.0962 Y28.8703
G01 X16.0991 Y28.8773
G01 X16.1188 Y28.9190
G01 X15.8602 Y29.1776
G01 X15.7737 Y29.0079
G01 X15.7094 Y28.8099
G01 X15.6768 Y28.6041
G00 Z2.0000
G00 X28.7613 Y44.5371
G01 F60.00
G01 Z-0.1000
G01 F120.00
G01 X28.7613 Y44.3129
G01 X28.7964 Y44.0916
G01 X28.8656 Y43.8785
G01 X28.9673 Y43.6788
G01 X29.0991 Y43.4975
G01 X29.2575 Y43.3391
G01 X29.4388 Y43.2073
G01 X29.6385 Y43.1056
G01 X29.8516 Y43.0364
G01 X30.0729 Y43.0013
G01 X30.2971 Y43.0013
G01 X30.5184 Y43.0364
G01 X30.7315 Y43.1056
G01 X30.9312 Y43.2073
G01 X31.1125 Y43.3391
G01 X31.2709 Y43.4975
G01 X31.4027 Y43.6788
G01 X31.5044 Y43.8785
G01 X31.5736 Y44.0916
G01 X31.6087 Y44.3129
G01 X31.6087 Y44.5371
G01 X31.5736 Y44.7584
G01 X31.5044 Y44.9715
G01 X31.4027 Y45.1712
G01 X31.2709 Y45.3525
G01 X31.1125 Y45.5109
G01 X30.9312 Y45.6427
G01 X30.7315 Y45.7444
G01 X30.5184 Y45.8136
G01 X30.2971 Y45.8487
G01 X30.0729 Y45.8487
G01 X29.8516 Y45.8136
G01 X29.6385 Y45.7444
G01 X29.4388 Y45.6427
G01 X29.2575 Y45.5109
G01 X29.0991 Y45.3525
G01 X29.0430 Y45.2753
G01 X28.9673 Y45.1712
G01 X28.8656 Y44.9715
G01 X28.7964 Y44.7584
G01 X28.7613 Y44.5371
G00 Z2.0000
G00 X28.8995 Y44.5262
G01 F60.00
G01 Z-0.1000
G01 F120.00
G01 X28.8995 Y44.3238
G01 X28.9312 Y44.1240
G01 X28.9937 Y43.9316
G01 X29.0856 Y43.7513
G01 X29.2045 Y43.5876
G01 X29.3476 Y43.4445
G01 X29.5113 Y43.3256
G01 X29.6915 Y43.2337
G01 X29.8840 Y43.1712
G01 X30.0838 Y43.1395
G01 X30.2862 Y43.1395
G01 X30.4860 Y43.1712
G01 X30.6784 Y43.2337
G01 X30.8587 Y43.3256
G01 X31.0224 Y43.4445
G01 X31.1655 Y43.5876
G01 X31.2844 Y43.7513
G01 X31.3763 Y43.9316
G01 X31.4388 Y44.1240
G01 X31.4705 Y44.3238
G01 X31.4705 Y44.5262
G01 X31.4388 Y44.7260
G01 X31.3763 Y44.9184
G01 X31.2844 Y45.0987
G01 X31.1655 Y45.2624
G01 X31.0224 Y45.4055
G01 X30.8587 Y45.5244
G01 X30.6784 Y45.6163
G01 X30.4860 Y45.6788
G01 X30.2862 Y45.7105
G01 X30.0838 Y45.7105
G01 X29.8840 Y45.6788
G01 X29.6916 Y45.6163
G01 X29.5113 Y45.5244
G01 X29.3476 Y45.4055
G01 X29.2045 Y45.2624
G01 X29.1548 Y45.1941
G01 X29.0856 Y45.0987
G01 X28.9937 Y44.9184
G01 X28.9312 Y44.7260
G01 X28.8995 Y44.5262
G00 Z2.0000
G00 X28.9754 Y44.5336
G01 F60.00
G01 Z-0.1000
G01 F120.00
G01 X28.9750 Y44.5336
G01 X28.9702 Y44.4356
G01 X28.9702 Y44.4144
G01 X28.9750 Y44.3164
G01 X28.9771 Y44.2954
G01 X28.9915 Y44.1984
G01 X28.9956 Y44.1777
G01 X29.0195 Y44.0825
G01 X29.0258 Y44.0624
G01 X29.0256 Y44.0623
G01 X29.0587 Y43.9699
G01 X29.0667 Y43.9504
G01 X29.1087 Y43.8617
G01 X29.1186 Y43.8431
G01 X29.1691 Y43.7589
G01 X29.1798 Y43.7428
G01 X29.2393 Y43.6625
G01 X29.2530 Y43.6465
G01 X29.2527 Y43.6462
G01 X29.3186 Y43.5735
G01 X29.3335 Y43.5586
G01 X29.4062 Y43.4927
G01 X29.4225 Y43.4793
G01 X29.5013 Y43.4208
G01 X29.5189 Y43.4091
G01 X29.6031 Y43.3586
G01 X29.6217 Y43.3487
G01 X29.7104 Y43.3067
G01 X29.7299 Y43.2987
G01 X29.8223 Y43.2656
G01 X29.8425 Y43.2595
G01 X29.9377 Y43.2356
G01 X29.9557 Y43.2319
G01 X30.0554 Y43.2171
G01 X30.0764 Y43.2154
G01 X30.0764 Y43.2150
G01 X30.1744 Y43.2102
G01 X30.1956 Y43.2102
G01 X30.2936 Y43.2150
G01 X30.3146 Y43.2171
G01 X30.4116 Y43.2315
G01 X30.4323 Y43.2356
G01 X30.5275 Y43.2595
G01 X30.5476 Y43.2658
G01 X30.5477 Y43.2656
G01 X30.6401 Y43.2987
G01 X30.6596 Y43.3067
G01 X30.7483 Y43.3487
G01 X30.7669 Y43.3586
G01 X30.8511 Y43.4091
G01 X30.8672 Y43.4198
G01 X30.9475 Y43.4793
G01 X30.9635 Y43.4930
G01 X30.9638 Y43.4927
G01 X31.0365 Y43.5586
G01 X31.0514 Y43.5735
G01 X31.1173 Y43.6462
G01 X31.1307 Y43.6625
G01 X31.1892 Y43.7413
G01 X31.2009 Y43.7589
G01 X31.2514 Y43.8431
G01 X31.2613 Y43.8617
G01 X31.3033 Y43.9504
G01 X31.3113 Y43.9699
G01 X31.3444 Y44.0623
G01 X31.3505 Y44.0825
G01 X31.3744 Y44.1777
G01 X31.3779 Y44.1949
G01 X31.3929 Y44.2954
G01 X31.3946 Y44.3164
G01 X31.3950 Y44.3164
G01 X31.3998 Y44.4144
G01 X31.3998 Y44.4356
G01 X31.3950 Y44.5336
G01 X31.3929 Y44.5546
G01 X31.3785 Y44.6516
G01 X31.3744 Y44.6723
G01 X31.3505 Y44.7675
G01 X31.3444 Y44.7877
G01 X31.3113 Y44.8801
G01 X31.3033 Y44.8996
G01 X31.2613 Y44.9883
G01 X31.2514 Y45.0069
G01 X31.2009 Y45.0911
G01 X31.1902 Y45.1072
G01 X31.1307 Y45.1875
G01 X31.1170 Y45.2035
G01 X31.1173 Y45.2038
G01 X31.0514 Y45.2765
G01 X31.0365 Y45.2914
G01 X30.9638 Y45.3573
G01 X30.9475 Y45.3707
G01 X30.8687 Y45.4292
G01 X30.8511 Y45.4409
G01 X30.7669 Y45.4914
G01 X30.7483 Y45.5013
G01 X30.6596 Y45.5433
G01 X30.6401 Y45.5513
G01 X30.5477 Y45.5844
G01 X30.5275 Y45.5905
G01 X30.4323 Y45.6144
G01 X30.4143 Y45.6181
G01 X30.3146 Y45.6329
G01 X30.2936 Y45.6346
G01 X30.2936 Y45.6350
G01 X30.1956 Y45.6398
G01 X30.1744 Y45.6398
G01 X30.0764 Y45.6350
G01 X30.0554 Y45.6329
G01 X29.9584 Y45.6185
G01 X29.9377 Y45.6144
G01 X29.8425 Y45.5905
G01 X29.8223 Y45.5844
G01 X29.7299 Y45.5513
G01 X29.7104 Y45.5433
G01 X29.6217 Y45.5013
G01 X29.6031 Y45.4914
G01 X29.5189 Y45.4409
G01 X29.5028 Y45.4302
G01 X29.4225 Y45.3707
G01 X29.4065 Y45.3570
G01 X29.4062 Y45.3573
G01 X29.3335 Y45.2914
G01 X29.3186 Y45.2765
G01 X29.2527 Y45.2038
G01 X29.2393 Y45.1875
G01 X29.1808 Y45.1087
G01 X29.1691 Y45.0911
G01 X29.1186 Y45.0069
G01 X29.1087 Y44.9883
G01 X29.0667 Y44.8996
G01 X29.0587 Y44.8801
G01 X29.0256 Y44.7877
G01 X29.0195 Y44.7675
G01 X28.9956 Y44.6723
G01 X28.9921 Y44.6551
G01 X28.9771 Y44.5546
G01 X28.9754 Y44.5336
G00 Z2.0000
G00 X29.1132 Y44.5268
G01 F60.00
G01 Z-0.1000
G01 F120.00
G01 X29.1083 Y44.4288
G01 X29.1083 Y44.4212
G01 X29.1131 Y44.3232
G01 X29.1138 Y44.3157
G01 X29.1282 Y44.2186
G01 X29.1297 Y44.2112
G01 X29.1536 Y44.1161
G01 X29.1557 Y44.1088
G01 X29.1888 Y44.0164
G01 X29.1917 Y44.0095
G01 X29.2337 Y43.9208
G01 X29.2372 Y43.9141
G01 X29.2877 Y43.8299
G01 X29.2915 Y43.8242
G01 X29.3503 Y43.7449
G01 X29.3551 Y43.7390
G01 X29.4210 Y43.6663
G01 X29.4263 Y43.6610
G01 X29.4990 Y43.5951
G01 X29.5049 Y43.5903
G01 X29.5837 Y43.5318
G01 X29.5899 Y43.5277
G01 X29.6741 Y43.4772
G01 X29.6808 Y43.4737
G01 X29.7695 Y43.4317
G01 X29.7764 Y43.4288
G01 X29.8688 Y43.3957
G01 X29.8761 Y43.3936
G01 X29.9712 Y43.3697
G01 X29.9777 Y43.3684
G01 X30.0757 Y43.3538
G01 X30.0832 Y43.3531
G01 X30.1812 Y43.3483
G01 X30.1888 Y43.3483
G01 X30.2868 Y43.3531
G01 X30.2943 Y43.3538
G01 X30.3914 Y43.3682
G01 X30.3988 Y43.3697
G01 X30.4939 Y43.3936
G01 X30.5012 Y43.3957
G01 X30.5936 Y43.4288
G01 X30.6005 Y43.4317
G01 X30.6892 Y43.4737
G01 X30.6959 Y43.4772
G01 X30.7801 Y43.5277
G01 X30.7858 Y43.5315
G01 X30.8651 Y43.5903
G01 X30.8710 Y43.5951
G01 X30.9437 Y43.6610
G01 X30.9490 Y43.6663
G01 X31.0149 Y43.7390
G01 X31.0197 Y43.7449
G01 X31.0782 Y43.8237
G01 X31.0823 Y43.8299
G01 X31.1328 Y43.9141
G01 X31.1363 Y43.9208
G01 X31.1783 Y44.0095
G01 X31.1812 Y44.0164
G01 X31.2143 Y44.1088
G01 X31.2164 Y44.1161
G01 X31.2416 Y44.2174
G01 X31.2562 Y44.3157
G01 X31.2569 Y44.3232
G01 X31.2617 Y44.4212
G01 X31.2617 Y44.4288
G01 X31.2569 Y44.5268
G01 X31.2562 Y44.5343
G01 X31.2418 Y44.6314
G01 X31.2403 Y44.6388
G01 X31.2164 Y44.7339
G01 X31.2143 Y44.7412
G01 X31.1812 Y44.8336
G01 X31.1783 Y44.8405
G01 X31.1363 Y44.9292
G01 X31.1328 Y44.9359
G01 X31.0823 Y45.0201
G01 X31.0785 Y45.0258
G01 X31.0197 Y45.1051
G01 X31.0149 Y45.1110
G01 X30.9490 Y45.1837
G01 X30.9437 Y45.1890
G01 X30.8710 Y45.2549
G01 X30.8651 Y45.2597
G01 X30.7863 Y45.3182
G01 X30.7801 Y45.3223
G01 X30.6959 Y45.3728
G01 X30.6892 Y45.3763
G01 X30.6005 Y45.4183
G01 X30.5936 Y45.4212
G01 X30.5012 Y45.4543
G01 X30.4939 Y45.4564
G01 X30.3988 Y45.4803
G01 X30.3923 Y45.4816
G01 X30.2943 Y45.4962
G01 X30.2868 Y45.4969
G01 X30.1888 Y45.5017
G01 X30.1812 Y45.5017
G01 X30.0832 Y45.4969
G01 X30.0757 Y45.4962
G01 X29.9786 Y45.4818
G01 X29.9712 Y45.4803
G01 X29.8761 Y45.4564
G01 X29.8688 Y45.4543
G01 X29.7764 Y45.4212
G01 X29.7695 Y45.4183
G01 X29.6808 Y45.3763
G01 X29.6741 Y45.3728
G01 X29.5899 Y45.3223
G01 X29.5842 Y45.3185
G01 X29.5049 Y45.2597
G01 X29.4990 Y45.2549
G01 X29.4263 Y45.1890
G01 X29.4210 Y45.1837
G01 X29.3551 Y45.1110
G01 X29.3503 Y45.1051
G01 X29.2918 Y45.0263
G01 X29.2877 Y45.0201
G01 X29.2372 Y44.9359
G01 X29.2337 Y44.9292
G01 X29.1917 Y44.8405
G01 X29.1888 Y44.8336
G01 X29.1557 Y44.7412
G01 X29.1536 Y44.7339
G01 X29.1284 Y44.6326
G01 X29.1138 Y44.5343
G01 X29.1132 Y44.5268
G00 Z2.0000
G00 X35.2613 Y44.5371
G01 F60.00
G01 Z-0.1000
G01 F120.00
G01 X35.2613 Y44.3129
G01 X35.2964 Y44.0916
G01 X35.3656 Y43.8785
G01 X35.4673 Y43.6788
G01 X35.5991 Y43.4975
G01 X35.7575 Y43.3391
G01 X35.9388 Y43.2073
G01 X36.0517 Y43.1498
G01 X36.0575 Y43.1465
G01 X36.0630 Y43.1427
G01 X36.0695 Y43.1373
G01 X36.1203 Y43.0893
G01 X36.1262 Y43.0831
G01 X36.1314 Y43.0762
G01 X36.1357 Y43.0688
G01 X36.1391 Y43.0613
G01 X36.1417 Y43.0535
G01 X36.1586 Y42.9910
G01 X36.1601 Y42.9844
G01 X36.1610 Y42.9777
G01 X36.1613 Y42.9709
G01 X36.1613 Y19.6595
G01 X36.1608 Y19.6505
G01 X36.1592 Y19.6416
G01 X36.1457 Y19.5853
G01 X36.1436 Y19.5782
G01 X36.1394 Y19.5684
G01 X36.0510 Y19.3947
G01 X35.9914 Y19.2116
G01 X35.9613 Y19.0213
G01 X35.9613 Y18.8287
G01 X35.9914 Y18.6385
G01 X36.0510 Y18.4553
G01 X36.1384 Y18.2836
G01 X36.2516 Y18.1278
G01 X36.3878 Y17.9916
G01 X36.5436 Y17.8784
G01 X36.7153 Y17.7910
G01 X36.8984 Y17.7314
G01 X37.0887 Y17.7013
G01 X37.2813 Y17.7013
G01 X37.4715 Y17.7314
G01 X37.6547 Y17.7910
G01 X37.8264 Y17.8784
G01 X37.9822 Y17.9916
G01 X38.1184 Y18.1278
G01 X38.2316 Y18.2836
G01 X38.3190 Y18.4553
G01 X38.3786 Y18.6385
G01 X38.4087 Y18.8287
G01 X38.4087 Y19.0213
G01 X38.3786 Y19.2116
G01 X38.3190 Y19.3947
G01 X38.2881 Y19.4555
G01 X38.2316 Y19.5664
G01 X38.1184 Y19.7222
G01 X37.9822 Y19.8584
G01 X37.8264 Y19.9716
G01 X37.6547 Y20.0590
G01 X37.4716 Y20.1186
G01 X37.3781 Y20.1334
G01 X37.3705 Y20.1350
G01 X37.3632 Y20.1373
G01 X37.3572 Y20.1398
G01 X37.2941 Y20.1698
G01 X37.2876 Y20.1732
G01 X37.2815 Y20.1772
G01 X37.2759 Y20.1818
G01 X37.2706 Y20.1870
G01 X37.2659 Y20.1925
G01 X37.2618 Y20.1986
G01 X37.2248 Y20.2579
G01 X37.2203 Y20.2663
G01 X37.2175 Y20.2733
G01 X37.2153 Y20.2806
G01 X37.2139 Y20.2881
G01 X37.2094 Y20.3213
G01 X37.2087 Y20.3317
G01 X37.2087 Y42.9709
G01 X37.2090 Y42.9782
G01 X37.2101 Y42.9855
G01 X37.2118 Y42.9926
G01 X37.2315 Y43.0596
G01 X37.2344 Y43.0677
G01 X37.2381 Y43.0754
G01 X37.2427 Y43.0827
G01 X37.2479 Y43.0891
G01 X37.2537 Y43.0949
G01 X37.3017 Y43.1384
G01 X37.3072 Y43.1429
G01 X37.3126 Y43.1466
G01 X37.3183 Y43.1498
G01 X37.4312 Y43.2073
G01 X37.6125 Y43.3391
G01 X37.7709 Y43.4975
G01 X37.9027 Y43.6788
G01 X38.0044 Y43.8785
G01 X38.0736 Y44.0916
G01 X38.1087 Y44.3129
G01 X38.1087 Y44.5371
G01 X38.0736 Y44.7584
G01 X38.0044 Y44.9715
G01 X37.9027 Y45.1712
G01 X37.7709 Y45.3525
G01 X37.6125 Y45.5109
G01 X37.4312 Y45.6427
G01 X37.2315 Y45.7444
G01 X37.0184 Y45.8136
G01 X36.7971 Y45.8487
G01 X36.5729 Y45.8487
G01 X36.3516 Y45.8136
G01 X36.1385 Y45.7444
G01 X35.9388 Y45.6427
G01 X35.7575 Y45.5109
G01 X35.5991 Y45.3525
G01 X35.5430 Y45.2753
G01 X35.4673 Y45.1712
G01 X35.3656 Y44.9715
G01 X35.2964 Y44.7584
G01 X35.2613 Y44.5371
G00 Z2.0000
G00 X35.3995 Y44.5262
G01 F60.00
G01 Z-0.1000
G01 F120.00
G01 X35.3995 Y44.3238
G01 X35.4312 Y44.1240
G01 X35.4937 Y43.9316
G01 X35.5856 Y43.7513
G01 X35.7045 Y43.5876
G01 X35.8476 Y43.4445
G01 X36.0113 Y43.3256
G01 X36.1144 Y43.2730
G01 X36.1308 Y43.2638
G01 X36.1463 Y43.2531
G01 X36.1644 Y43.2378
G01 X36.2152 Y43.1898
G01 X36.2317 Y43.1724
G01 X36.2462 Y43.1532
G01 X36.2584 Y43.1326
G01 X36.2679 Y43.1115
G01 X36.2752 Y43.0896
G01 X36.2921 Y43.0271
G01 X36.2962 Y43.0086
G01 X36.2987 Y42.9898
G01 X36.2995 Y42.9709
G01 X36.2995 Y19.6595
G01 X36.2980 Y19.6342
G01 X36.2936 Y19.6093
G01 X36.2801 Y19.5530
G01 X36.2743 Y19.5332
G01 X36.2626 Y19.5056
G01 X36.1791 Y19.3417
G01 X36.1263 Y19.1792
G01 X36.0995 Y19.0104
G01 X36.0995 Y18.8396
G01 X36.1263 Y18.6708
G01 X36.1791 Y18.5083
G01 X36.2566 Y18.3561
G01 X36.3571 Y18.2179
G01 X36.4779 Y18.0971
G01 X36.6161 Y17.9966
G01 X36.7683 Y17.9191
G01 X36.9308 Y17.8663
G01 X37.0996 Y17.8395
G01 X37.2704 Y17.8395
G01 X37.4392 Y17.8663
G01 X37.6017 Y17.9191
G01 X37.7539 Y17.9966
G01 X37.8921 Y18.0971
G01 X38.0129 Y18.2179
G01 X38.1134 Y18.3561
G01 X38.1909 Y18.5083
G01 X38.2437 Y18.6708
G01 X38.2705 Y18.8396
G01 X38.2705 Y19.0104
G01 X38.2437 Y19.1792
G01 X38.1909 Y19.3417
G01 X38.1649 Y19.3928
G01 X38.1134 Y19.4939
G01 X38.0129 Y19.6321
G01 X37.8921 Y19.7529
G01 X37.7539 Y19.8534
G01 X37.6017 Y19.9309
G01 X37.4392 Y19.9837
G01 X37.3565 Y19.9968
G01 X37.3353 Y20.0013
G01 X37.3146 Y20.0079
G01 X37.2980 Y20.0149
G01 X37.2349 Y20.0448
G01 X37.2168 Y20.0545
G01 X37.1997 Y20.0658
G01 X37.1838 Y20.0787
G01 X37.1692 Y20.0930
G01 X37.1561 Y20.1087
G01 X37.1444 Y20.1255
G01 X37.1075 Y20.1848
G01 X37.1038 Y20.1910
G01 X37.0948 Y20.2084
G01 X37.0868 Y20.2281
G01 X37.0809 Y20.2485
G01 X37.0770 Y20.2694
G01 X37.0724 Y20.3026
G01 X37.0705 Y20.3317
G01 X37.0705 Y42.9709
G01 X37.0714 Y42.9914
G01 X37.0743 Y43.0116
G01 X37.0792 Y43.0315
G01 X37.0989 Y43.0986
G01 X37.1069 Y43.1212
G01 X37.1174 Y43.1428
G01 X37.1303 Y43.1631
G01 X37.1447 Y43.1811
G01 X37.1609 Y43.1974
G01 X37.2089 Y43.2409
G01 X37.2244 Y43.2536
G01 X37.2396 Y43.2640
G01 X37.2556 Y43.2730
G01 X37.3587 Y43.3256
G01 X37.5224 Y43.4445
G01 X37.6655 Y43.5876
G01 X37.7844 Y43.7513
G01 X37.8763 Y43.9316
G01 X37.9388 Y44.1240
G01 X37.9705 Y44.3238
G01 X37.9705 Y44.5262
G01 X37.9388 Y44.7260
G01 X37.8763 Y44.9184
G01 X37.7844 Y45.0987
G01 X37.6655 Y45.2624
G01 X37.5224 Y45.4055
G01 X37.3587 Y45.5244
G01 X37.1784 Y45.6163
G01 X36.9860 Y45.6788
G01 X36.7862 Y45.7105
G01 X36.5838 Y45.7105
G01 X36.3840 Y45.6788
G01 X36.1916 Y45.6163
G01 X36.0113 Y45.5244
G01 X35.8476 Y45.4055
G01 X35.7045 Y45.2624
G01 X35.6548 Y45.1941
G01 X35.5856 Y45.0987
G01 X35.4937 Y44.9184
G01 X35.4312 Y44.7260
G01 X35.3995 Y44.5262
G00 Z2.0000
G00 X35.4754 Y44.5336
G01 F60.00
G01 Z-0.1000
G01 F120.00
G01 X35.4750 Y44.5336
G01 X35.4702 Y44.4356
G01 X35.4702 Y44.4144
G01 X35.4750 Y44.3164
G01 X35.4771 Y44.2954
G01 X35.4915 Y44.1984
G01 X35.4956 Y44.1777
G01 X35.5195 Y44.0825
G01 X35.5258 Y44.0624
G01 X35.5256 Y44.0623
G01 X35.5587 Y43.9699
G01 X35.5667 Y43.9504
G01 X35.6087 Y43.8617
G01 X35.6186 Y43.8431
G01 X35.6691 Y43.7589
G01 X35.6798 Y43.7428
G01 X35.7393 Y43.6625
G01 X35.7530 Y43.6465
G01 X35.7527 Y43.6462
G01 X35.8186 Y43.5735
G01 X35.8335 Y43.5586
G01 X35.9062 Y43.4927
G01 X35.9225 Y43.4793
G01 X36.0013 Y43.4208
G01 X36.0189 Y43.4091
G01 X36.1031 Y43.3586
G01 X36.1217 Y43.3487
G01 X36.2104 Y43.3067
G01 X36.2299 Y43.2987
G01 X36.3223 Y43.2656
G01 X36.3425 Y43.2595
G01 X36.3699 Y43.2526
G01 X36.3699 Y19.5283
G01 X36.3471 Y19.4976
G01 X36.3354 Y19.4800
G01 X36.2950 Y19.4127
G01 X36.2851 Y19.3941
G01 X36.2515 Y19.3231
G01 X36.2434 Y19.3036
G01 X36.2170 Y19.2297
G01 X36.2109 Y19.2095
G01 X36.1918 Y19.1333
G01 X36.1881 Y19.1152
G01 X36.1761 Y19.0350
G01 X36.1744 Y19.0139
G01 X36.1741 Y19.0140
G01 X36.1702 Y18.9356
G01 X36.1702 Y18.9144
G01 X36.1741 Y18.8360
G01 X36.1761 Y18.8150
G01 X36.1877 Y18.7374
G01 X36.1918 Y18.7167
G01 X36.2109 Y18.6405
G01 X36.2170 Y18.6203
G01 X36.2434 Y18.5464
G01 X36.2515 Y18.5269
G01 X36.2851 Y18.4559
G01 X36.2950 Y18.4373
G01 X36.3354 Y18.3700
G01 X36.3461 Y18.3539
G01 X36.3939 Y18.2894
G01 X36.4076 Y18.2733
G01 X36.4073 Y18.2731
G01 X36.4600 Y18.2149
G01 X36.4749 Y18.2000
G01 X36.5331 Y18.1473
G01 X36.5494 Y18.1339
G01 X36.6124 Y18.0871
G01 X36.6300 Y18.0754
G01 X36.6973 Y18.0350
G01 X36.7159 Y18.0251
G01 X36.7869 Y17.9915
G01 X36.8064 Y17.9834
G01 X36.8803 Y17.9570
G01 X36.9005 Y17.9509
G01 X36.9767 Y17.9318
G01 X36.9948 Y17.9281
G01 X37.0750 Y17.9161
G01 X37.0961 Y17.9144
G01 X37.0960 Y17.9141
G01 X37.1744 Y17.9102
G01 X37.1956 Y17.9102
G01 X37.2740 Y17.9141
G01 X37.2950 Y17.9161
G01 X37.3726 Y17.9277
G01 X37.3933 Y17.9318
G01 X37.4695 Y17.9509
G01 X37.4896 Y17.9572
G01 X37.4897 Y17.9570
G01 X37.5636 Y17.9834
G01 X37.5831 Y17.9915
G01 X37.6541 Y18.0251
G01 X37.6727 Y18.0350
G01 X37.7400 Y18.0754
G01 X37.7561 Y18.0861
G01 X37.8206 Y18.1339
G01 X37.8367 Y18.1476
G01 X37.8369 Y18.1473
G01 X37.8951 Y18.2000
G01 X37.9100 Y18.2149
G01 X37.9627 Y18.2731
G01 X37.9761 Y18.2894
G01 X38.0229 Y18.3524
G01 X38.0346 Y18.3700
G01 X38.0750 Y18.4373
G01 X38.0849 Y18.4559
G01 X38.1185 Y18.5269
G01 X38.1266 Y18.5464
G01 X38.1530 Y18.6203
G01 X38.1591 Y18.6405
G01 X38.1782 Y18.7167
G01 X38.1819 Y18.7348
G01 X38.1939 Y18.8150
G01 X38.1956 Y18.8361
G01 X38.1959 Y18.8360
G01 X38.1998 Y18.9144
G01 X38.1998 Y18.9356
G01 X38.1959 Y19.0140
G01 X38.1939 Y19.0350
G01 X38.1823 Y19.1126
G01 X38.1782 Y19.1333
G01 X38.1591 Y19.2095
G01 X38.1528 Y19.2296
G01 X38.1530 Y19.2297
G01 X38.1266 Y19.3036
G01 X38.1185 Y19.3231
G01 X38.0849 Y19.3941
G01 X38.0750 Y19.4127
G01 X38.0346 Y19.4800
G01 X38.0239 Y19.4961
G01 X37.9761 Y19.5606
G01 X37.9624 Y19.5767
G01 X37.9627 Y19.5769
G01 X37.9100 Y19.6351
G01 X37.8951 Y19.6500
G01 X37.8369 Y19.7027
G01 X37.8206 Y19.7161
G01 X37.7576 Y19.7629
G01 X37.7400 Y19.7746
G01 X37.6727 Y19.8150
G01 X37.6541 Y19.8249
G01 X37.5831 Y19.8585
G01 X37.5636 Y19.8666
G01 X37.4897 Y19.8930
G01 X37.4695 Y19.8991
G01 X37.3933 Y19.9182
G01 X37.3752 Y19.9219
G01 X37.2950 Y19.9339
G01 X37.2739 Y19.9356
G01 X37.2740 Y19.9359
G01 X37.1956 Y19.9398
G01 X37.1744 Y19.9398
G01 X37.0960 Y19.9359
G01 X37.0750 Y19.9339
G01 X37.0001 Y19.9227
G01 X37.0001 Y43.2526
G01 X37.0275 Y43.2595
G01 X37.0476 Y43.2658
G01 X37.0477 Y43.2656
G01 X37.1401 Y43.2987
G01 X37.1596 Y43.3067
G01 X37.2483 Y43.3487
G01 X37.2669 Y43.3586
G01 X37.3511 Y43.4091
G01 X37.3672 Y43.4198
G01 X37.4475 Y43.4793
G01 X37.4635 Y43.4930
G01 X37.4638 Y43.4927
G01 X37.5365 Y43.5586
G01 X37.5514 Y43.5735
G01 X37.6173 Y43.6462
G01 X37.6307 Y43.6625
G01 X37.6892 Y43.7413
G01 X37.7009 Y43.7589
G01 X37.7514 Y43.8431
G01 X37.7613 Y43.8617
G01 X37.8033 Y43.9504
G01 X37.8113 Y43.9699
G01 X37.8444 Y44.0623
G01 X37.8505 Y44.0825
G01 X37.8744 Y44.1777
G01 X37.8779 Y44.1949
G01 X37.8929 Y44.2954
G01 X37.8946 Y44.3164
G01 X37.8950 Y44.3164
G01 X37.8998 Y44.4144
G01 X37.8998 Y44.4356
G01 X37.8950 Y44.5336
G01 X37.8929 Y44.5546
G01 X37.8785 Y44.6516
G01 X37.8744 Y44.6723
G01 X37.8505 Y44.7675
G01 X37.8444 Y44.7877
G01 X37.8113 Y44.8801
G01 X37.8033 Y44.8996
G01 X37.7613 Y44.9883
G01 X37.7514 Y45.0069
G01 X37.7009 Y45.0911
G01 X37.6902 Y45.1072
G01 X37.6307 Y45.1875
G01 X37.6170 Y45.2035
G01 X37.6173 Y45.2038
G01 X37.5514 Y45.2765
G01 X37.5365 Y45.2914
G01 X37.4638 Y45.3573
G01 X37.4475 Y45.3707
G01 X37.3687 Y45.4292
G01 X37.3511 Y45.4409
G01 X37.2669 Y45.4914
G01 X37.2483 Y45.5013
G01 X37.1596 Y45.5433
G01 X37.1401 Y45.5513
G01 X37.0477 Y45.5844
G01 X37.0275 Y45.5905
G01 X36.9323 Y45.6144
G01 X36.9143 Y45.6181
G01 X36.8146 Y45.6329
G01 X36.7936 Y45.6346
G01 X36.7936 Y45.6350
G01 X36.6956 Y45.6398
G01 X36.6744 Y45.6398
G01 X36.5764 Y45.6350
G01 X36.5554 Y45.6329
G01 X36.4584 Y45.6185
G01 X36.4377 Y45.6144
G01 X36.3425 Y45.5905
G01 X36.3223 Y45.5844
G01 X36.2299 Y45.5513
G01 X36.2104 Y45.5433
G01 X36.1217 Y45.5013
G01 X36.1031 Y45.4914
G01 X36.0189 Y45.4409
G01 X36.0028 Y45.4302
G01 X35.9225 Y45.3707
G01 X35.9065 Y45.3570
G01 X35.9062 Y45.3573
G01 X35.8335 Y45.2914
G01 X35.8186 Y45.2765
G01 X35.7527 Y45.2038
G01 X35.7393 Y45.1875
G01 X35.6808 Y45.1087
G01 X35.6691 Y45.0911
G01 X35.6186 Y45.0069
G01 X35.6087 Y44.9883
G01 X35.5667 Y44.8996
G01 X35.5587 Y44.8801
G01 X35.5256 Y44.7877
G01 X35.5195 Y44.7675
G01 X35.4956 Y44.6723
G01 X35.4921 Y44.6551
G01 X35.4771 Y44.5546
G01 X35.4754 Y44.5336
G00 Z2.0000
G00 X35.6132 Y44.5268
G01 F60.00
G01 Z-0.1000
G01 F120.00
G01 X35.6083 Y44.4288
G01 X35.6083 Y44.4212
G01 X35.6131 Y44.3232
G01 X35.6138 Y44.3157
G01 X35.6282 Y44.2186
G01 X35.6297 Y44.2112
G01 X35.6536 Y44.1161
G01 X35.6557 Y44.1088
G01 X35.6888 Y44.0164
G01 X35.6917 Y44.0095
G01 X35.7337 Y43.9208
G01 X35.7372 Y43.9141
G01 X35.7877 Y43.8299
G01 X35.7915 Y43.8242
G01 X35.8503 Y43.7449
G01 X35.8551 Y43.7390
G01 X35.9210 Y43.6663
G01 X35.9263 Y43.6610
G01 X35.9990 Y43.5951
G01 X36.0049 Y43.5903
G01 X36.0837 Y43.5318
G01 X36.0899 Y43.5277
G01 X36.1741 Y43.4772
G01 X36.1808 Y43.4737
G01 X36.2695 Y43.4317
G01 X36.2764 Y43.4288
G01 X36.3688 Y43.3957
G01 X36.3761 Y43.3936
G01 X36.4712 Y43.3697
G01 X36.4777 Y43.3684
G01 X36.5081 Y43.3639
G01 X36.5081 Y19.4822
G01 X36.4581 Y19.4152
G01 X36.4540 Y19.4089
G01 X36.4136 Y19.3416
G01 X36.4100 Y19.3350
G01 X36.3765 Y19.2640
G01 X36.3736 Y19.2570
G01 X36.3471 Y19.1831
G01 X36.3449 Y19.1759
G01 X36.3259 Y19.0997
G01 X36.3245 Y19.0933
G01 X36.3129 Y19.0147
G01 X36.3121 Y19.0072
G01 X36.3083 Y18.9288
G01 X36.3083 Y18.9212
G01 X36.3121 Y18.8428
G01 X36.3129 Y18.8353
G01 X36.3244 Y18.7577
G01 X36.3259 Y18.7503
G01 X36.3449 Y18.6741
G01 X36.3471 Y18.6669
G01 X36.3736 Y18.5930
G01 X36.3765 Y18.5860
G01 X36.4100 Y18.5150
G01 X36.4136 Y18.5084
G01 X36.4540 Y18.4411
G01 X36.4578 Y18.4353
G01 X36.5049 Y18.3717
G01 X36.5097 Y18.3659
G01 X36.5624 Y18.3077
G01 X36.5677 Y18.3024
G01 X36.6259 Y18.2497
G01 X36.6317 Y18.2449
G01 X36.6948 Y18.1981
G01 X36.7011 Y18.1940
G01 X36.7684 Y18.1536
G01 X36.7750 Y18.1500
G01 X36.8460 Y18.1165
G01 X36.8530 Y18.1136
G01 X36.9269 Y18.0871
G01 X36.9341 Y18.0849
G01 X37.0103 Y18.0659
G01 X37.0167 Y18.0645
G01 X37.0953 Y18.0529
G01 X37.1028 Y18.0521
G01 X37.1812 Y18.0483
G01 X37.1888 Y18.0483
G01 X37.2672 Y18.0521
G01 X37.2747 Y18.0529
G01 X37.3523 Y18.0644
G01 X37.3597 Y18.0659
G01 X37.4359 Y18.0849
G01 X37.4431 Y18.0871
G01 X37.5170 Y18.1136
G01 X37.5240 Y18.1165
G01 X37.5950 Y18.1500
G01 X37.6016 Y18.1536
G01 X37.6689 Y18.1940
G01 X37.6747 Y18.1978
G01 X37.7383 Y18.2449
G01 X37.7441 Y18.2497
G01 X37.8023 Y18.3024
G01 X37.8076 Y18.3077
G01 X37.8603 Y18.3659
G01 X37.8651 Y18.3717
G01 X37.9119 Y18.4348
G01 X37.9160 Y18.4411
G01 X37.9564 Y18.5084
G01 X37.9600 Y18.5150
G01 X37.9935 Y18.5860
G01 X37.9964 Y18.5930
G01 X38.0229 Y18.6669
G01 X38.0251 Y18.6741
G01 X38.0441 Y18.7503
G01 X38.0455 Y18.7567
G01 X38.0571 Y18.8353
G01 X38.0579 Y18.8428
G01 X38.0617 Y18.9212
G01 X38.0617 Y18.9288
G01 X38.0579 Y19.0072
G01 X38.0571 Y19.0147
G01 X38.0456 Y19.0923
G01 X38.0441 Y19.0997
G01 X38.0251 Y19.1759
G01 X38.0229 Y19.1831
G01 X37.9964 Y19.2570
G01 X37.9935 Y19.2640
G01 X37.9600 Y19.3350
G01 X37.9564 Y19.3416
G01 X37.9160 Y19.4089
G01 X37.9122 Y19.4147
G01 X37.8651 Y19.4783
G01 X37.8603 Y19.4841
G01 X37.8076 Y19.5423
G01 X37.8023 Y19.5476
G01 X37.7441 Y19.6003
G01 X37.7383 Y19.6051
G01 X37.6752 Y19.6519
G01 X37.6689 Y19.6560
G01 X37.6016 Y19.6964
G01 X37.5950 Y19.7000
G01 X37.5240 Y19.7335
G01 X37.5170 Y19.7364
G01 X37.4431 Y19.7629
G01 X37.4359 Y19.7651
G01 X37.3597 Y19.7841
G01 X37.3533 Y19.7855
G01 X37.2747 Y19.7971
G01 X37.2672 Y19.7979
G01 X37.1888 Y19.8017
G01 X37.1812 Y19.8017
G01 X37.1028 Y19.7979
G01 X37.0953 Y19.7971
G01 X37.0177 Y19.7856
G01 X37.0103 Y19.7841
G01 X36.9341 Y19.7651
G01 X36.9269 Y19.7629
G01 X36.8619 Y19.7396
G01 X36.8619 Y43.3639
G01 X36.8914 Y43.3682
G01 X36.8988 Y43.3697
G01 X36.9939 Y43.3936
G01 X37.0012 Y43.3957
G01 X37.0936 Y43.4288
G01 X37.1005 Y43.4317
G01 X37.1892 Y43.4737
G01 X37.1959 Y43.4772
G01 X37.2801 Y43.5277
G01 X37.2858 Y43.5315
G01 X37.3651 Y43.5903
G01 X37.3710 Y43.5951
G01 X37.4437 Y43.6610
G01 X37.4490 Y43.6663
G01 X37.5149 Y43.7390
G01 X37.5197 Y43.7449
G01 X37.5782 Y43.8237
G01 X37.5823 Y43.8299
G01 X37.6328 Y43.9141
G01 X37.6363 Y43.9208
G01 X37.6783 Y44.0095
G01 X37.6812 Y44.0164
G01 X37.7143 Y44.1088
G01 X37.7164 Y44.1161
G01 X37.7416 Y44.2174
G01 X37.7562 Y44.3157
G01 X37.7569 Y44.3232
G01 X37.7617 Y44.4212
G01 X37.7617 Y44.4288
G01 X37.7569 Y44.5268
G01 X37.7562 Y44.5343
G01 X37.7418 Y44.6314
G01 X37.7403 Y44.6388
G01 X37.7164 Y44.7339
G01 X37.7143 Y44.7412
G01 X37.6812 Y44.8336
G01 X37.6783 Y44.8405
G01 X37.6363 Y44.9292
G01 X37.6328 Y44.9359
G01 X37.5823 Y45.0201
G01 X37.5785 Y45.0258
G01 X37.5197 Y45.1051
G01 X37.5149 Y45.1110
G01 X37.4490 Y45.1837
G01 X37.4437 Y45.1890
G01 X37.3710 Y45.2549
G01 X37.3651 Y45.2597
G01 X37.2863 Y45.3182
G01 X37.2801 Y45.3223
G01 X37.1959 Y45.3728
G01 X37.1892 Y45.3763
G01 X37.1005 Y45.4183
G01 X37.0936 Y45.4212
G01 X37.0012 Y45.4543
G01 X36.9939 Y45.4564
G01 X36.8988 Y45.4803
G01 X36.8923 Y45.4816
G01 X36.7943 Y45.4962
G01 X36.7868 Y45.4969
G01 X36.6888 Y45.5017
G01 X36.6812 Y45.5017
G01 X36.5832 Y45.4969
G01 X36.5757 Y45.4962
G01 X36.4786 Y45.4818
G01 X36.4712 Y45.4803
G01 X36.3761 Y45.4564
G01 X36.3688 Y45.4543
G01 X36.2764 Y45.4212
G01 X36.2695 Y45.4183
G01 X36.1808 Y45.3763
G01 X36.1741 Y45.3728
G01 X36.0899 Y45.3223
G01 X36.0842 Y45.3185
G01 X36.0049 Y45.2597
G01 X35.9990 Y45.2549
G01 X35.9263 Y45.1890
G01 X35.9210 Y45.1837
G01 X35.8551 Y45.1110
G01 X35.8503 Y45.1051
G01 X35.7918 Y45.0263
G01 X35.7877 Y45.0201
G01 X35.7372 Y44.9359
G01 X35.7337 Y44.9292
G01 X35.6917 Y44.8405
G01 X35.6888 Y44.8336
G01 X35.6557 Y44.7412
G01 X35.6536 Y44.7339
G01 X35.6297 Y44.6388
G01 X35.6282 Y44.6314
G01 X35.6138 Y44.5343
G01 X35.6132 Y44.5268
G00 Z2.0000
G00 X35.6132 Y49.0268
G01 F60.00
G01 Z-0.1000
G01 F120.00
G01 X35.6083 Y48.9288
G01 X35.6083 Y48.9212
G01 X35.6131 Y48.8232
G01 X35.6138 Y48.8157
G01 X35.6282 Y48.7186
G01 X35.6297 Y48.7112
G01 X35.6536 Y48.6161
G01 X35.6557 Y48.6088
G01 X35.6888 Y48.5164
G01 X35.6917 Y48.5095
G01 X35.7337 Y48.4208
G01 X35.7372 Y48.4141
G01 X35.7877 Y48.3299
G01 X35.7915 Y48.3242
G01 X35.8503 Y48.2449
G01 X35.8551 Y48.2390
G01 X35.9210 Y48.1663
G01 X35.9263 Y48.1610
G01 X35.9990 Y48.0951
G01 X36.0049 Y48.0903
G01 X36.0837 Y48.0318
G01 X36.0899 Y48.0277
G01 X36.1741 Y47.9772
G01 X36.1808 Y47.9737
G01 X36.2695 Y47.9317
G01 X36.2764 Y47.9288
G01 X36.3688 Y47.8957
G01 X36.3761 Y47.8936
G01 X36.4712 Y47.8697
G01 X36.4777 Y47.8684
G01 X36.5757 Y47.8538
G01 X36.5832 Y47.8531
G01 X36.6812 Y47.8483
G01 X36.6888 Y47.8483
G01 X36.7868 Y47.8531
G01 X36.7943 Y47.8538
G01 X36.8914 Y47.8682
G01 X36.8988 Y47.8697
G01 X36.9939 Y47.8936
G01 X37.0012 Y47.8957
G01 X37.0936 Y47.9288
G01 X37.1005 Y47.9317
G01 X37.1892 Y47.9737
G01 X37.1959 Y47.9772
G01 X37.2801 Y48.0277
G01 X37.2858 Y48.0315
G01 X37.3651 Y48.0903
G01 X37.3710 Y48.0951
G01 X37.4437 Y48.1610
G01 X37.4490 Y48.1663
G01 X37.5149 Y48.2390
G01 X37.5197 Y48.2449
G01 X37.5782 Y48.3237
G01 X37.5823 Y48.3299
G01 X37.6328 Y48.4141
G01 X37.6363 Y48.4208
G01 X37.6783 Y48.5095
G01 X37.6812 Y48.5164
G01 X37.7143 Y48.6088
G01 X37.7164 Y48.6161
G01 X37.7416 Y48.7174
G01 X37.7562 Y48.8157
G01 X37.7569 Y48.8232
G01 X37.7617 Y48.9212
G01 X37.7617 Y48.9288
G01 X37.7569 Y49.0268
G01 X37.7562 Y49.0343
G01 X37.7418 Y49.1314
G01 X37.7403 Y49.1388
G01 X37.7164 Y49.2339
G01 X37.7143 Y49.2412
G01 X37.6812 Y49.3336
G01 X37.6783 Y49.3405
G01 X37.6363 Y49.4292
G01 X37.6328 Y49.4359
G01 X37.5823 Y49.5201
G01 X37.5785 Y49.5258
G01 X37.5197 Y49.6051
G01 X37.5149 Y49.6110
G01 X37.4490 Y49.6837
G01 X37.4437 Y49.6890
G01 X37.3710 Y49.7549
G01 X37.3651 Y49.7597
G01 X37.2863 Y49.8182
G01 X37.2801 Y49.8223
G01 X37.1959 Y49.8728
G01 X37.1892 Y49.8763
G01 X37.1005 Y49.9183
G01 X37.0936 Y49.9212
G01 X37.0012 Y49.9543
G01 X36.9939 Y49.9564
G01 X36.8988 Y49.9803
G01 X36.8923 Y49.9816
G01 X36.7943 Y49.9962
G01 X36.7868 Y49.9969
G01 X36.6888 Y50.0017
G01 X36.6812 Y50.0017
G01 X36.5832 Y49.9969
G01 X36.5757 Y49.9962
G01 X36.4786 Y49.9818
G01 X36.4712 Y49.9803
G01 X36.3761 Y49.9564
G01 X36.3688 Y49.9543
G01 X36.2764 Y49.9212
G01 X36.2695 Y49.9183
G01 X36.1808 Y49.8763
G01 X36.1741 Y49.8728
G01 X36.0899 Y49.8223
G01 X36.0842 Y49.8185
G01 X36.0049 Y49.7597
G01 X35.9990 Y49.7549
G01 X35.9263 Y49.6890
G01 X35.9210 Y49.6837
G01 X35.8551 Y49.6110
G01 X35.8503 Y49.6051
G01 X35.7918 Y49.5263
G01 X35.7877 Y49.5201
G01 X35.7372 Y49.4359
G01 X35.7337 Y49.4292
G01 X35.6917 Y49.3405
G01 X35.6888 Y49.3336
G01 X35.6557 Y49.2412
G01 X35.6536 Y49.2339
G01 X35.6284 Y49.1326
G01 X35.6138 Y49.0343
G01 X35.6132 Y49.0268
G00 Z2.0000
G00 X35.4754 Y49.0336
G01 F60.00
G01 Z-0.1000
G01 F120.00
G01 X35.4750 Y49.0336
G01 X35.4702 Y48.9356
G01 X35.4702 Y48.9144
G01 X35.4750 Y48.8164
G01 X35.4771 Y48.7954
G01 X35.4915 Y48.6984
G01 X35.4956 Y48.6777
G01 X35.5195 Y48.5825
G01 X35.5258 Y48.5624
G01 X35.5256 Y48.5623
G01 X35.5587 Y48.4699
G01 X35.5667 Y48.4504
G01 X35.6087 Y48.3617
G01 X35.6186 Y48.3431
G01 X35.6691 Y48.2589
G01 X35.6798 Y48.2428
G01 X35.7393 Y48.1625
G01 X35.7530 Y48.1465
G01 X35.7527 Y48.1462
G01 X35.8186 Y48.0735
G01 X35.8335 Y48.0586
G01 X35.9062 Y47.9927
G01 X35.9225 Y47.9793
G01 X36.0013 Y47.9208
G01 X36.0189 Y47.9091
G01 X36.1031 Y47.8586
G01 X36.1217 Y47.8487
G01 X36.2104 Y47.8067
G01 X36.2299 Y47.7987
G01 X36.3223 Y47.7656
G01 X36.3425 Y47.7595
G01 X36.4377 Y47.7356
G01 X36.4557 Y47.7319
G01 X36.5554 Y47.7171
G01 X36.5764 Y47.7154
G01 X36.5764 Y47.7150
G01 X36.6744 Y47.7102
G01 X36.6956 Y47.7102
G01 X36.7936 Y47.7150
G01 X36.8146 Y47.7171
G01 X36.9116 Y47.7315
G01 X36.9323 Y47.7356
G01 X37.0275 Y47.7595
G01 X37.0476 Y47.7658
G01 X37.0477 Y47.7656
G01 X37.1401 Y47.7987
G01 X37.1596 Y47.8067
G01 X37.2483 Y47.8487
G01 X37.2669 Y47.8586
G01 X37.3511 Y47.9091
G01 X37.3672 Y47.9198
G01 X37.4475 Y47.9793
G01 X37.4635 Y47.9930
G01 X37.4638 Y47.9927
G01 X37.5365 Y48.0586
G01 X37.5514 Y48.0735
G01 X37.6173 Y48.1462
G01 X37.6307 Y48.1625
G01 X37.6892 Y48.2413
G01 X37.7009 Y48.2589
G01 X37.7514 Y48.3431
G01 X37.7613 Y48.3617
G01 X37.8033 Y48.4504
G01 X37.8113 Y48.4699
G01 X37.8444 Y48.5623
G01 X37.8505 Y48.5825
G01 X37.8744 Y48.6777
G01 X37.8779 Y48.6949
G01 X37.8929 Y48.7954
G01 X37.8946 Y48.8164
G01 X37.8950 Y48.8164
G01 X37.8998 Y48.9144
G01 X37.8998 Y48.9356
G01 X37.8950 Y49.0336
G01 X37.8929 Y49.0546
G01 X37.8785 Y49.1516
G01 X37.8744 Y49.1723
G01 X37.8505 Y49.2675
G01 X37.8444 Y49.2877
G01 X37.8113 Y49.3801
G01 X37.8033 Y49.3996
G01 X37.7613 Y49.4883
G01 X37.7514 Y49.5069
G01 X37.7009 Y49.5911
G01 X37.6902 Y49.6072
G01 X37.6307 Y49.6875
G01 X37.6170 Y49.7035
G01 X37.6173 Y49.7038
G01 X37.5514 Y49.7765
G01 X37.5365 Y49.7914
G01 X37.4638 Y49.8573
G01 X37.4475 Y49.8707
G01 X37.3687 Y49.9292
G01 X37.3511 Y49.9409
G01 X37.2669 Y49.9914
G01 X37.2483 Y50.0013
G01 X37.1596 Y50.0433
G01 X37.1401 Y50.0513
G01 X37.0477 Y50.0844
G01 X37.0275 Y50.0905
G01 X36.9323 Y50.1144
G01 X36.9143 Y50.1181
G01 X36.8146 Y50.1329
G01 X36.7936 Y50.1346
G01 X36.7936 Y50.1350
G01 X36.6956 Y50.1398
G01 X36.6744 Y50.1398
G01 X36.5764 Y50.1350
G01 X36.5554 Y50.1329
G01 X36.4584 Y50.1185
G01 X36.4377 Y50.1144
G01 X36.3425 Y50.0905
G01 X36.3223 Y50.0844
G01 X36.2299 Y50.0513
G01 X36.2104 Y50.0433
G01 X36.1217 Y50.0013
G01 X36.1031 Y49.9914
G01 X36.0189 Y49.9409
G01 X36.0028 Y49.9302
G01 X35.9225 Y49.8707
G01 X35.9065 Y49.8570
G01 X35.9062 Y49.8573
G01 X35.8335 Y49.7914
G01 X35.8186 Y49.7765
G01 X35.7527 Y49.7038
G01 X35.7393 Y49.6875
G01 X35.6808 Y49.6087
G01 X35.6691 Y49.5911
G01 X35.6186 Y49.5069
G01 X35.6087 Y49.4883
G01 X35.5667 Y49.3996
G01 X35.5587 Y49.3801
G01 X35.5256 Y49.2877
G01 X35.5195 Y49.2675
G01 X35.4956 Y49.1723
G01 X35.4921 Y49.1551
G01 X35.4771 Y49.0546
G01 X35.4754 Y49.0336
G00 Z2.0000
G00 X35.3995 Y49.0262
G01 F60.00
G01 Z-0.1000
G01 F120.00
G01 X35.3995 Y48.8238
G01 X35.4312 Y48.6240
G01 X35.4937 Y48.4316
G01 X35.5856 Y48.2513
G01 X35.7045 Y48.0876
G01 X35.8476 Y47.9445
G01 X36.0113 Y47.8256
G01 X36.1915 Y47.7337
G01 X36.3840 Y47.6712
G01 X36.5838 Y47.6395
G01 X36.7862 Y47.6395
G01 X36.9860 Y47.6712
G01 X37.1784 Y47.7337
G01 X37.3587 Y47.8256
G01 X37.5224 Y47.9445
G01 X37.6655 Y48.0876
G01 X37.7844 Y48.2513
G01 X37.8763 Y48.4316
G01 X37.9388 Y48.6240
G01 X37.9705 Y48.8238
G01 X37.9705 Y49.0262
G01 X37.9388 Y49.2260
G01 X37.8763 Y49.4184
G01 X37.7844 Y49.5987
G01 X37.6655 Y49.7624
G01 X37.5224 Y49.9055
G01 X37.3587 Y50.0244
G01 X37.1784 Y50.1163
G01 X36.9860 Y50.1788
G01 X36.7862 Y50.2105
G01 X36.5838 Y50.2105
G01 X36.3840 Y50.1788
G01 X36.1916 Y50.1163
G01 X36.0113 Y50.0244
G01 X35.8476 Y49.9055
G01 X35.7045 Y49.7624
G01 X35.6548 Y49.6941
G01 X35.5856 Y49.5987
G01 X35.4937 Y49.4184
G01 X35.4312 Y49.2260
G01 X35.3995 Y49.0262
G00 Z2.0000
G00 X35.2613 Y49.0371
G01 F60.00
G01 Z-0.1000
G01 F120.00
G01 X35.2613 Y48.8129
G01 X35.2964 Y48.5916
G01 X35.3656 Y48.3785
G01 X35.4673 Y48.1788
G01 X35.5991 Y47.9975
G01 X35.7575 Y47.8391
G01 X35.9388 Y47.7073
G01 X36.1385 Y47.6056
G01 X36.3516 Y47.5364
G01 X36.5729 Y47.5013
G01 X36.7971 Y47.5013
G01 X37.0184 Y47.5364
G01 X37.2315 Y47.6056
G01 X37.4312 Y47.7073
G01 X37.6125 Y47.8391
G01 X37.7709 Y47.9975
G01 X37.9027 Y48.1788
G01 X38.0044 Y48.3785
G01 X38.0736 Y48.5916
G01 X38.1087 Y48.8129
G01 X38.1087 Y49.0371
G01 X38.0736 Y49.2584
G01 X38.0044 Y49.4715
G01 X37.9027 Y49.6712
G01 X37.7709 Y49.8525
G01 X37.6125 Y50.0109
G01 X37.4312 Y50.1427
G01 X37.2315 Y50.2444
G01 X37.0184 Y50.3136
G01 X36.7971 Y50.3487
G01 X36.5729 Y50.3487
G01 X36.3516 Y50.3136
G01 X36.1385 Y50.2444
G01 X35.9388 Y50.1427
G01 X35.7575 Y50.0109
G01 X35.5991 Y49.8525
G01 X35.5430 Y49.7753
G01 X35.4673 Y49.6712
G01 X35.3656 Y49.4715
G01 X35.2964 Y49.2584
G01 X35.2613 Y49.0371
G00 Z2.0000
G00 X16.0278 Y49.3420
G01 F60.00
G01 Z-0.1000
G01 F120.00
G01 X16.0233 Y49.2538
G01 X16.0233 Y49.2462
G01 X16.0276 Y49.1580
G01 X16.0284 Y49.1505
G01 X16.0413 Y49.0631
G01 X16.0428 Y49.0558
G01 X16.0643 Y48.9701
G01 X16.0664 Y48.9629
G01 X16.0962 Y48.8797
G01 X16.0991 Y48.8727
G01 X16.1368 Y48.7929
G01 X16.1404 Y48.7863
G01 X16.1858 Y48.7105
G01 X16.1896 Y48.7047
G01 X16.2426 Y48.6333
G01 X16.2474 Y48.6275
G01 X16.3067 Y48.5620
G01 X16.3120 Y48.5567
G01 X16.3775 Y48.4974
G01 X16.3833 Y48.4926
G01 X16.4542 Y48.4400
G01 X16.4605 Y48.4358
G01 X16.5363 Y48.3904
G01 X16.5429 Y48.3868
G01 X16.6227 Y48.3491
G01 X16.6297 Y48.3462
G01 X16.7129 Y48.3164
G01 X16.7201 Y48.3143
G01 X16.8058 Y48.2928
G01 X16.8122 Y48.2915
G01 X16.9005 Y48.2784
G01 X16.9080 Y48.2776
G01 X16.9962 Y48.2733
G01 X17.0038 Y48.2733
G01 X17.0920 Y48.2776
G01 X17.0995 Y48.2784
G01 X17.1869 Y48.2913
G01 X17.1942 Y48.2928
G01 X17.2799 Y48.3143
G01 X17.2871 Y48.3164
G01 X17.3703 Y48.3462
G01 X17.3773 Y48.3491
G01 X17.4571 Y48.3868
G01 X17.4637 Y48.3904
G01 X17.5395 Y48.4358
G01 X17.5453 Y48.4396
G01 X17.6167 Y48.4926
G01 X17.6225 Y48.4974
G01 X17.6880 Y48.5567
G01 X17.6933 Y48.5620
G01 X17.7526 Y48.6275
G01 X17.7574 Y48.6333
G01 X17.8100 Y48.7042
G01 X17.8142 Y48.7105
G01 X17.8596 Y48.7863
G01 X17.8632 Y48.7929
G01 X17.9009 Y48.8727
G01 X17.9038 Y48.8797
G01 X17.9336 Y48.9629
G01 X17.9357 Y48.9701
G01 X17.9572 Y49.0558
G01 X17.9602 Y49.0731
G01 X29.1196 Y49.0731
G01 X29.1138 Y49.0343
G01 X29.1131 Y49.0268
G01 X29.1083 Y48.9288
G01 X29.1083 Y48.9212
G01 X29.1131 Y48.8232
G01 X29.1138 Y48.8157
G01 X29.1282 Y48.7186
G01 X29.1297 Y48.7112
G01 X29.1536 Y48.6161
G01 X29.1557 Y48.6088
G01 X29.1888 Y48.5164
G01 X29.1917 Y48.5095
G01 X29.2337 Y48.4208
G01 X29.2372 Y48.4141
G01 X29.2877 Y48.3299
G01 X29.2915 Y48.3242
G01 X29.3503 Y48.2449
G01 X29.3551 Y48.2390
G01 X29.4210 Y48.1663
G01 X29.4263 Y48.1610
G01 X29.4990 Y48.0951
G01 X29.5049 Y48.0903
G01 X29.5837 Y48.0318
G01 X29.5899 Y48.0277
G01 X29.6741 Y47.9772
G01 X29.6808 Y47.9737
G01 X29.7695 Y47.9317
G01 X29.7764 Y47.9288
G01 X29.8688 Y47.8957
G01 X29.8761 Y47.8936
G01 X29.9712 Y47.8697
G01 X29.9777 Y47.8684
G01 X30.0757 Y47.8538
G01 X30.0832 Y47.8531
G01 X30.1812 Y47.8483
G01 X30.1888 Y47.8483
G01 X30.2868 Y47.8531
G01 X30.2943 Y47.8538
G01 X30.3914 Y47.8682
G01 X30.3988 Y47.8697
G01 X30.4939 Y47.8936
G01 X30.5012 Y47.8957
G01 X30.5936 Y47.9288
G01 X30.6005 Y47.9317
G01 X30.6892 Y47.9737
G01 X30.6959 Y47.9772
G01 X30.7801 Y48.0277
G01 X30.7858 Y48.0315
G01 X30.8651 Y48.0903
G01 X30.8710 Y48.0951
G01 X30.9437 Y48.1610
G01 X30.9490 Y48.1663
G01 X31.0149 Y48.2390
G01 X31.0197 Y48.2449
G01 X31.0782 Y48.3237
G01 X31.0823 Y48.3299
G01 X31.1328 Y48.4141
G01 X31.1363 Y48.4208
G01 X31.1783 Y48.5095
G01 X31.1812 Y48.5164
G01 X31.2143 Y48.6088
G01 X31.2164 Y48.6161
G01 X31.2416 Y48.7174
G01 X31.2562 Y48.8157
G01 X31.2569 Y48.8232
G01 X31.2617 Y48.9212
G01 X31.2617 Y48.9288
G01 X31.2569 Y49.0268
G01 X31.2562 Y49.0343
G01 X31.2418 Y49.1314
G01 X31.2403 Y49.1388
G01 X31.2164 Y49.2339
G01 X31.2143 Y49.2412
G01 X31.1812 Y49.3336
G01 X31.1783 Y49.3405
G01 X31.1363 Y49.4292
G01 X31.1328 Y49.4359
G01 X31.0823 Y49.5201
G01 X31.0785 Y49.5258
G01 X31.0197 Y49.6051
G01 X31.0149 Y49.6110
G01 X30.9490 Y49.6837
G01 X30.9437 Y49.6890
G01 X30.8710 Y49.7549
G01 X30.8651 Y49.7597
G01 X30.7863 Y49.8182
G01 X30.7801 Y49.8223
G01 X30.6959 Y49.8728
G01 X30.6892 Y49.8763
G01 X30.6005 Y49.9183
G01 X30.5936 Y49.9212
G01 X30.5012 Y49.9543
G01 X30.4939 Y49.9564
G01 X30.3988 Y49.9803
G01 X30.3923 Y49.9816
G01 X30.2943 Y49.9962
G01 X30.2868 Y49.9969
G01 X30.1888 Y50.0017
G01 X30.1812 Y50.0017
G01 X30.0832 Y49.9969
G01 X30.0757 Y49.9962
G01 X29.9786 Y49.9818
G01 X29.9712 Y49.9803
G01 X29.8761 Y49.9564
G01 X29.8688 Y49.9543
G01 X29.7764 Y49.9212
G01 X29.7695 Y49.9183
G01 X29.6808 Y49.8763
G01 X29.6741 Y49.8728
G01 X29.5899 Y49.8223
G01 X29.5837 Y49.8182
G01 X29.5049 Y49.7597
G01 X29.4990 Y49.7549
G01 X29.4263 Y49.6890
G01 X29.4210 Y49.6837
G01 X29.3551 Y49.6110
G01 X29.3503 Y49.6051
G01 X29.2918 Y49.5263
G01 X29.2877 Y49.5201
G01 X29.2372 Y49.4359
G01 X29.2325 Y49.4269
G01 X17.9602 Y49.4269
G01 X17.9572 Y49.4442
G01 X17.9357 Y49.5299
G01 X17.9336 Y49.5371
G01 X17.9038 Y49.6203
G01 X17.9009 Y49.6273
G01 X17.8632 Y49.7071
G01 X17.8596 Y49.7137
G01 X17.8142 Y49.7895
G01 X17.8104 Y49.7953
G01 X17.7574 Y49.8667
G01 X17.7526 Y49.8725
G01 X17.6933 Y49.9380
G01 X17.6880 Y49.9433
G01 X17.6225 Y50.0026
G01 X17.6167 Y50.0074
G01 X17.5458 Y50.0600
G01 X17.5395 Y50.0642
G01 X17.4637 Y50.1096
G01 X17.4571 Y50.1132
G01 X17.3773 Y50.1509
G01 X17.3703 Y50.1538
G01 X17.2871 Y50.1836
G01 X17.2799 Y50.1857
G01 X17.1942 Y50.2072
G01 X17.1878 Y50.2085
G01 X17.0995 Y50.2216
G01 X17.0920 Y50.2224
G01 X17.0038 Y50.2267
G01 X16.9962 Y50.2267
G01 X16.9080 Y50.2224
G01 X16.9005 Y50.2216
G01 X16.8131 Y50.2087
G01 X16.8058 Y50.2072
G01 X16.7201 Y50.1857
G01 X16.7129 Y50.1836
G01 X16.6297 Y50.1538
G01 X16.6227 Y50.1509
G01 X16.5429 Y50.1132
G01 X16.5363 Y50.1096
G01 X16.4605 Y50.0642
G01 X16.4547 Y50.0604
G01 X16.3833 Y50.0074
G01 X16.3775 Y50.0026
G01 X16.3120 Y49.9433
G01 X16.3067 Y49.9380
G01 X16.2474 Y49.8725
G01 X16.2426 Y49.8667
G01 X16.1900 Y49.7958
G01 X16.1858 Y49.7895
G01 X16.1404 Y49.7137
G01 X16.1368 Y49.7071
G01 X16.0991 Y49.6273
G01 X16.0962 Y49.6203
G01 X16.0664 Y49.5371
G01 X16.0643 Y49.5299
G01 X16.0428 Y49.4442
G01 X16.0413 Y49.4369
G01 X16.0284 Y49.3495
G01 X16.0278 Y49.3420
G00 Z2.0000
G00 X15.8899 Y49.3487
G01 F60.00
G01 Z-0.1000
G01 F120.00
G01 X15.8896 Y49.3488
G01 X15.8852 Y49.2606
G01 X15.8852 Y49.2394
G01 X15.8896 Y49.1512
G01 X15.8916 Y49.1302
G01 X15.9046 Y49.0429
G01 X15.9087 Y49.0222
G01 X15.9302 Y48.9365
G01 X15.9363 Y48.9163
G01 X15.9660 Y48.8331
G01 X15.9741 Y48.8136
G01 X16.0119 Y48.7338
G01 X16.0218 Y48.7152
G01 X16.0672 Y48.6394
G01 X16.0779 Y48.6233
G01 X16.1316 Y48.5509
G01 X16.1453 Y48.5349
G01 X16.1450 Y48.5346
G01 X16.2043 Y48.4692
G01 X16.2192 Y48.4543
G01 X16.2846 Y48.3950
G01 X16.3009 Y48.3816
G01 X16.3719 Y48.3290
G01 X16.3894 Y48.3172
G01 X16.4652 Y48.2718
G01 X16.4838 Y48.2619
G01 X16.5636 Y48.2241
G01 X16.5831 Y48.2160
G01 X16.6663 Y48.1863
G01 X16.6865 Y48.1802
G01 X16.7722 Y48.1587
G01 X16.7903 Y48.1550
G01 X16.8802 Y48.1416
G01 X16.9013 Y48.1399
G01 X16.9012 Y48.1396
G01 X16.9894 Y48.1352
G01 X17.0106 Y48.1352
G01 X17.0988 Y48.1396
G01 X17.1198 Y48.1416
G01 X17.2071 Y48.1546
G01 X17.2278 Y48.1587
G01 X17.3135 Y48.1802
G01 X17.3337 Y48.1863
G01 X17.4169 Y48.2160
G01 X17.4364 Y48.2241
G01 X17.5162 Y48.2619
G01 X17.5348 Y48.2718
G01 X17.6106 Y48.3172
G01 X17.6267 Y48.3279
G01 X17.6991 Y48.3816
G01 X17.7151 Y48.3953
G01 X17.7154 Y48.3950
G01 X17.7808 Y48.4543
G01 X17.7957 Y48.4692
G01 X17.8550 Y48.5346
G01 X17.8684 Y48.5509
G01 X17.9210 Y48.6219
G01 X17.9328 Y48.6394
G01 X17.9782 Y48.7152
G01 X17.9881 Y48.7338
G01 X18.0259 Y48.8136
G01 X18.0340 Y48.8331
G01 X18.0637 Y48.9163
G01 X18.0694 Y48.9349
G01 X28.9702 Y48.9349
G01 X28.9702 Y48.9144
G01 X28.9750 Y48.8164
G01 X28.9771 Y48.7954
G01 X28.9915 Y48.6984
G01 X28.9956 Y48.6777
G01 X29.0195 Y48.5825
G01 X29.0258 Y48.5624
G01 X29.0256 Y48.5623
G01 X29.0587 Y48.4699
G01 X29.0667 Y48.4504
G01 X29.1087 Y48.3617
G01 X29.1186 Y48.3431
G01 X29.1691 Y48.2589
G01 X29.1798 Y48.2428
G01 X29.2393 Y48.1625
G01 X29.2530 Y48.1465
G01 X29.2527 Y48.1462
G01 X29.3186 Y48.0735
G01 X29.3335 Y48.0586
G01 X29.4062 Y47.9927
G01 X29.4225 Y47.9793
G01 X29.5013 Y47.9208
G01 X29.5189 Y47.9091
G01 X29.6031 Y47.8586
G01 X29.6217 Y47.8487
G01 X29.7104 Y47.8067
G01 X29.7299 Y47.7987
G01 X29.8223 Y47.7656
G01 X29.8425 Y47.7595
G01 X29.9377 Y47.7356
G01 X29.9557 Y47.7319
G01 X30.0554 Y47.7171
G01 X30.0764 Y47.7154
G01 X30.0764 Y47.7150
G01 X30.1744 Y47.7102
G01 X30.1956 Y47.7102
G01 X30.2936 Y47.7150
G01 X30.3146 Y47.7171
G01 X30.4116 Y47.7315
G01 X30.4323 Y47.7356
G01 X30.5275 Y47.7595
G01 X30.5476 Y47.7658
G01 X30.5477 Y47.7656
G01 X30.6401 Y47.7987
G01 X30.6596 Y47.8067
G01 X30.7483 Y47.8487
G01 X30.7669 Y47.8586
G01 X30.8511 Y47.9091
G01 X30.8672 Y47.9198
G01 X30.9475 Y47.9793
G01 X30.9635 Y47.9930
G01 X30.9638 Y47.9927
G01 X31.0365 Y48.0586
G01 X31.0514 Y48.0735
G01 X31.1173 Y48.1462
G01 X31.1307 Y48.1625
G01 X31.1892 Y48.2413
G01 X31.2009 Y48.2589
G01 X31.2514 Y48.3431
G01 X31.2613 Y48.3617
G01 X31.3033 Y48.4504
G01 X31.3113 Y48.4699
G01 X31.3444 Y48.5623
G01 X31.3505 Y48.5825
G01 X31.3744 Y48.6777
G01 X31.3779 Y48.6949
G01 X31.3929 Y48.7954
G01 X31.3946 Y48.8164
G01 X31.3950 Y48.8164
G01 X31.3998 Y48.9144
G01 X31.3998 Y48.9356
G01 X31.3950 Y49.0336
G01 X31.3929 Y49.0546
G01 X31.3785 Y49.1516
G01 X31.3744 Y49.1723
G01 X31.3505 Y49.2675
G01 X31.3444 Y49.2877
G01 X31.3113 Y49.3801
G01 X31.3033 Y49.3996
G01 X31.2613 Y49.4883
G01 X31.2514 Y49.5069
G01 X31.2009 Y49.5911
G01 X31.1902 Y49.6072
G01 X31.1307 Y49.6875
G01 X31.1170 Y49.7035
G01 X31.1173 Y49.7038
G01 X31.0514 Y49.7765
G01 X31.0365 Y49.7914
G01 X30.9638 Y49.8573
G01 X30.9475 Y49.8707
G01 X30.8687 Y49.9292
G01 X30.8511 Y49.9409
G01 X30.7669 Y49.9914
G01 X30.7483 Y50.0013
G01 X30.6596 Y50.0433
G01 X30.6401 Y50.0513
G01 X30.5477 Y50.0844
G01 X30.5275 Y50.0905
G01 X30.4323 Y50.1144
G01 X30.4143 Y50.1181
G01 X30.3146 Y50.1329
G01 X30.2936 Y50.1346
G01 X30.2936 Y50.1350
G01 X30.1956 Y50.1398
G01 X30.1744 Y50.1398
G01 X30.0764 Y50.1350
G01 X30.0554 Y50.1329
G01 X29.9584 Y50.1185
G01 X29.9377 Y50.1144
G01 X29.8425 Y50.0905
G01 X29.8223 Y50.0844
G01 X29.7299 Y50.0513
G01 X29.7104 Y50.0433
G01 X29.6217 Y50.0013
G01 X29.6031 Y49.9914
G01 X29.5189 Y49.9409
G01 X29.5028 Y49.9302
G01 X29.4225 Y49.8707
G01 X29.4065 Y49.8570
G01 X29.4062 Y49.8573
G01 X29.3335 Y49.7914
G01 X29.3186 Y49.7765
G01 X29.2527 Y49.7038
G01 X29.2393 Y49.6875
G01 X29.1808 Y49.6087
G01 X29.1691 Y49.5911
G01 X29.1535 Y49.5651
G01 X18.0693 Y49.5651
G01 X18.0637 Y49.5837
G01 X18.0340 Y49.6669
G01 X18.0259 Y49.6864
G01 X17.9881 Y49.7662
G01 X17.9782 Y49.7848
G01 X17.9328 Y49.8606
G01 X17.9221 Y49.8767
G01 X17.8684 Y49.9491
G01 X17.8547 Y49.9651
G01 X17.8550 Y49.9654
G01 X17.7957 Y50.0308
G01 X17.7808 Y50.0457
G01 X17.7154 Y50.1050
G01 X17.6991 Y50.1184
G01 X17.6281 Y50.1710
G01 X17.6106 Y50.1828
G01 X17.5348 Y50.2282
G01 X17.5162 Y50.2381
G01 X17.4364 Y50.2759
G01 X17.4169 Y50.2840
G01 X17.3337 Y50.3137
G01 X17.3135 Y50.3198
G01 X17.2278 Y50.3413
G01 X17.2097 Y50.3450
G01 X17.1198 Y50.3584
G01 X17.0987 Y50.3601
G01 X17.0988 Y50.3604
G01 X17.0106 Y50.3648
G01 X16.9894 Y50.3648
G01 X16.9012 Y50.3604
G01 X16.8802 Y50.3584
G01 X16.7929 Y50.3454
G01 X16.7722 Y50.3413
G01 X16.6865 Y50.3198
G01 X16.6663 Y50.3137
G01 X16.5831 Y50.2840
G01 X16.5636 Y50.2759
G01 X16.4838 Y50.2381
G01 X16.4652 Y50.2282
G01 X16.3894 Y50.1828
G01 X16.3733 Y50.1721
G01 X16.3009 Y50.1184
G01 X16.2849 Y50.1047
G01 X16.2846 Y50.1050
G01 X16.2192 Y50.0457
G01 X16.2043 Y50.0308
G01 X16.1450 Y49.9654
G01 X16.1316 Y49.9491
G01 X16.0790 Y49.8781
G01 X16.0672 Y49.8606
G01 X16.0218 Y49.7848
G01 X16.0119 Y49.7662
G01 X15.9741 Y49.6864
G01 X15.9660 Y49.6669
G01 X15.9363 Y49.5837
G01 X15.9302 Y49.5635
G01 X15.9087 Y49.4778
G01 X15.9051 Y49.4606
G01 X15.8916 Y49.3698
G01 X15.8899 Y49.3487
G00 Z2.0000
G00 X15.8145 Y49.3433
G01 F60.00
G01 Z-0.1000
G01 F120.00
G01 X15.8145 Y49.1567
G01 X15.8437 Y48.9724
G01 X15.9014 Y48.7949
G01 X15.9861 Y48.6287
G01 X16.0958 Y48.4777
G01 X16.2277 Y48.3458
G01 X16.3787 Y48.2361
G01 X16.5449 Y48.1514
G01 X16.7224 Y48.0937
G01 X16.9067 Y48.0645
G01 X17.0933 Y48.0645
G01 X17.2776 Y48.0937
G01 X17.4551 Y48.1514
G01 X17.6213 Y48.2361
G01 X17.7723 Y48.3458
G01 X17.9042 Y48.4777
G01 X18.0139 Y48.6287
G01 X18.0398 Y48.6794
G01 X18.0490 Y48.6958
G01 X18.0597 Y48.7113
G01 X18.0750 Y48.7294
G01 X18.1230 Y48.7802
G01 X18.1404 Y48.7967
G01 X18.1596 Y48.8112
G01 X18.1802 Y48.8234
G01 X18.2012 Y48.8330
G01 X18.2232 Y48.8402
G01 X18.2857 Y48.8571
G01 X18.3042 Y48.8612
G01 X18.3229 Y48.8637
G01 X18.3418 Y48.8645
G01 X28.6067 Y48.8645
G01 X28.6271 Y48.8636
G01 X28.6474 Y48.8607
G01 X28.6673 Y48.8558
G01 X28.7343 Y48.8361
G01 X28.7536 Y48.8295
G01 X28.7721 Y48.8210
G01 X28.7898 Y48.8109
G01 X28.8065 Y48.7990
G01 X28.8221 Y48.7855
G01 X28.8363 Y48.7706
G01 X28.8820 Y48.7178
G01 X28.8933 Y48.7037
G01 X28.9033 Y48.6887
G01 X28.9120 Y48.6729
G01 X28.9199 Y48.6550
G01 X28.9292 Y48.6303
G01 X28.9937 Y48.4316
G01 X29.0856 Y48.2513
G01 X29.2045 Y48.0876
G01 X29.3476 Y47.9445
G01 X29.5113 Y47.8256
G01 X29.6915 Y47.7337
G01 X29.8840 Y47.6712
G01 X30.0838 Y47.6395
G01 X30.2862 Y47.6395
G01 X30.4860 Y47.6712
G01 X30.6784 Y47.7337
G01 X30.8587 Y47.8256
G01 X31.0224 Y47.9445
G01 X31.1655 Y48.0876
G01 X31.2844 Y48.2513
G01 X31.3763 Y48.4316
G01 X31.4388 Y48.6240
G01 X31.4705 Y48.8238
G01 X31.4705 Y49.0262
G01 X31.4388 Y49.2260
G01 X31.3763 Y49.4184
G01 X31.2844 Y49.5987
G01 X31.1655 Y49.7624
G01 X31.0224 Y49.9055
G01 X30.8587 Y50.0244
G01 X30.6784 Y50.1163
G01 X30.4860 Y50.1788
G01 X30.2862 Y50.2105
G01 X30.0838 Y50.2105
G01 X29.8840 Y50.1788
G01 X29.6916 Y50.1163
G01 X29.5113 Y50.0244
G01 X29.3476 Y49.9055
G01 X29.1829 Y49.7406
G01 X29.1669 Y49.7272
G01 X29.1140 Y49.6873
G01 X29.0906 Y49.6719
G01 X29.0694 Y49.6614
G01 X29.0472 Y49.6532
G01 X29.0242 Y49.6476
G01 X28.9792 Y49.6392
G01 X28.9594 Y49.6364
G01 X28.9395 Y49.6355
G01 X18.3418 Y49.6355
G01 X18.3214 Y49.6364
G01 X18.3011 Y49.6393
G01 X18.2813 Y49.6442
G01 X18.2142 Y49.6639
G01 X18.1916 Y49.6719
G01 X18.1700 Y49.6824
G01 X18.1497 Y49.6953
G01 X18.1317 Y49.7097
G01 X18.1153 Y49.7259
G01 X18.0719 Y49.7739
G01 X18.0592 Y49.7894
G01 X18.0488 Y49.8046
G01 X18.0398 Y49.8206
G01 X18.0139 Y49.8713
G01 X17.9042 Y50.0223
G01 X17.7723 Y50.1542
G01 X17.6213 Y50.2639
G01 X17.4551 Y50.3486
G01 X17.2776 Y50.4063
G01 X17.0933 Y50.4355
G01 X16.9067 Y50.4355
G01 X16.7224 Y50.4063
G01 X16.5449 Y50.3486
G01 X16.3787 Y50.2639
G01 X16.2277 Y50.1542
G01 X16.0958 Y50.0223
G01 X15.9861 Y49.8713
G01 X15.9014 Y49.7051
G01 X15.8437 Y49.5276
G01 X15.8145 Y49.3433
G00 Z2.0000
G00 X15.6763 Y49.3542
G01 F60.00
G01 Z-0.1000
G01 F120.00
G01 X15.6763 Y49.1458
G01 X15.7089 Y48.9400
G01 X15.7733 Y48.7419
G01 X15.8679 Y48.5562
G01 X15.9903 Y48.3877
G01 X16.1377 Y48.2403
G01 X16.3062 Y48.1179
G01 X16.4919 Y48.0233
G01 X16.6900 Y47.9589
G01 X16.8958 Y47.9263
G01 X17.1042 Y47.9263
G01 X17.3100 Y47.9589
G01 X17.5081 Y48.0233
G01 X17.6938 Y48.1179
G01 X17.8623 Y48.2403
G01 X18.0097 Y48.3877
G01 X18.1321 Y48.5562
G01 X18.1629 Y48.6167
G01 X18.1662 Y48.6225
G01 X18.1700 Y48.6280
G01 X18.1755 Y48.6345
G01 X18.2235 Y48.6853
G01 X18.2297 Y48.6912
G01 X18.2366 Y48.6964
G01 X18.2439 Y48.7007
G01 X18.2514 Y48.7041
G01 X18.2593 Y48.7067
G01 X18.3218 Y48.7236
G01 X18.3284 Y48.7251
G01 X18.3351 Y48.7260
G01 X18.3418 Y48.7263
G01 X28.6067 Y48.7263
G01 X28.6140 Y48.7260
G01 X28.6212 Y48.7249
G01 X28.6283 Y48.7232
G01 X28.6954 Y48.7035
G01 X28.7023 Y48.7011
G01 X28.7089 Y48.6981
G01 X28.7152 Y48.6945
G01 X28.7212 Y48.6902
G01 X28.7267 Y48.6854
G01 X28.7318 Y48.6801
G01 X28.7816 Y48.6223
G01 X28.7851 Y48.6169
G01 X28.7882 Y48.6112
G01 X28.7911 Y48.6049
G01 X28.7977 Y48.5876
G01 X28.8656 Y48.3785
G01 X28.9673 Y48.1788
G01 X29.0991 Y47.9975
G01 X29.2575 Y47.8391
G01 X29.4388 Y47.7073
G01 X29.6385 Y47.6056
G01 X29.8516 Y47.5364
G01 X30.0729 Y47.5013
G01 X30.2971 Y47.5013
G01 X30.5184 Y47.5364
G01 X30.7315 Y47.6056
G01 X30.9312 Y47.7073
G01 X31.1125 Y47.8391
G01 X31.2709 Y47.9975
G01 X31.4027 Y48.1788
G01 X31.5044 Y48.3785
G01 X31.5736 Y48.5916
G01 X31.6087 Y48.8129
G01 X31.6087 Y49.0371
G01 X31.5736 Y49.2584
G01 X31.5044 Y49.4715
G01 X31.4027 Y49.6712
G01 X31.2709 Y49.8525
G01 X31.1125 Y50.0109
G01 X30.9312 Y50.1427
G01 X30.7315 Y50.2444
G01 X30.5184 Y50.3136
G01 X30.2971 Y50.3487
G01 X30.0729 Y50.3487
G01 X29.8516 Y50.3136
G01 X29.6385 Y50.2444
G01 X29.4388 Y50.1427
G01 X29.2575 Y50.0109
G01 X29.0974 Y49.8508
G01 X29.0893 Y49.8423
G01 X29.0836 Y49.8375
G01 X29.0308 Y49.7976
G01 X29.0224 Y49.7921
G01 X29.0148 Y49.7884
G01 X29.0069 Y49.7855
G01 X28.9987 Y49.7835
G01 X28.9537 Y49.7750
G01 X28.9466 Y49.7740
G01 X28.9395 Y49.7737
G01 X18.3418 Y49.7737
G01 X18.3345 Y49.7740
G01 X18.3273 Y49.7751
G01 X18.3202 Y49.7768
G01 X18.2532 Y49.7965
G01 X18.2451 Y49.7994
G01 X18.2374 Y49.8031
G01 X18.2301 Y49.8077
G01 X18.2237 Y49.8129
G01 X18.2178 Y49.8187
G01 X18.1744 Y49.8667
G01 X18.1699 Y49.8722
G01 X18.1661 Y49.8776
G01 X18.1629 Y49.8833
G01 X18.1321 Y49.9438
G01 X18.0097 Y50.1123
G01 X17.8623 Y50.2597
G01 X17.6938 Y50.3821
G01 X17.5081 Y50.4767
G01 X17.3100 Y50.5411
G01 X17.1042 Y50.5737
G01 X16.8958 Y50.5737
G01 X16.6900 Y50.5411
G01 X16.4919 Y50.4767
G01 X16.3062 Y50.3821
G01 X16.1377 Y50.2597
G01 X15.9903 Y50.1123
G01 X15.8679 Y49.9438
G01 X15.7733 Y49.7581
G01 X15.7089 Y49.5600
G01 X15.6763 Y49.3542
G00 Z2.0000
G00 X65.6745 Y12.5608
G01 F60.00
G01 Z-0.1000
G01 F120.00
G01 X65.7192 Y12.6947
G01 X65.6745 Y12.6947
G01 X65.6745 Y12.5608
G00 Z2.0000
G00 X65.5363 Y11.7089
G01 F60.00
G01 Z-0.1000
G01 F120.00
G01 X65.8674 Y12.7017
G01 X65.8739 Y12.7182
G01 X65.8838 Y12.7412
G01 X65.8981 Y12.7694
G01 X65.9102 Y12.7906
G01 X65.9198 Y12.8056
G01 X65.9340 Y12.8262
G01 X65.9379 Y12.8315
G01 X65.9382 Y12.8313
G01 X65.9395 Y12.8329
G01 X65.5363 Y12.8329
G01 X65.5363 Y11.7089
G00 Z2.0000
G00 X65.6149 Y11.0536
G01 F60.00
G01 Z-0.1000
G01 F120.00
G01 X65.6134 Y11.0331
G01 X65.6137 Y11.0167
G01 X65.6143 Y11.0092
G01 X65.6162 Y10.9931
G01 X65.6173 Y10.9871
G01 X65.6205 Y10.9727
G01 X65.6271 Y10.9515
G01 X65.6357 Y10.9310
G01 X65.6391 Y10.9242
G01 X65.6501 Y10.9053
G01 X65.6634 Y10.8870
G01 X65.6773 Y10.8712
G01 X65.6888 Y10.8601
G01 X65.7061 Y10.8461
G01 X65.7246 Y10.8339
G01 X65.7312 Y10.8301
G01 X65.7512 Y10.8204
G01 X65.7721 Y10.8127
G01 X65.7926 Y10.8072
G01 X65.8081 Y10.8045
G01 X65.8303 Y10.8024
G01 X65.8378 Y10.8022
G01 X65.8601 Y10.8031
G01 X65.8821 Y10.8061
G01 X65.9038 Y10.8113
G01 X65.9178 Y10.8159
G01 X65.9383 Y10.8245
G01 X65.9578 Y10.8351
G01 X65.9763 Y10.8475
G01 X65.9934 Y10.8617
G01 X65.9980 Y10.8660
G01 X66.0091 Y10.8776
G01 X66.0231 Y10.8948
G01 X66.0354 Y10.9134
G01 X66.0458 Y10.9331
G01 X66.0488 Y10.9400
G01 X66.0555 Y10.9573
G01 X66.1466 Y11.2307
G01 X66.5338 Y11.2307
G01 X66.6250 Y10.9573
G01 X66.6316 Y10.9400
G01 X66.6347 Y10.9331
G01 X66.6447 Y10.9141
G01 X66.6530 Y10.9010
G01 X66.6664 Y10.8833
G01 X66.6714 Y10.8776
G01 X66.6816 Y10.8669
G01 X66.6982 Y10.8522
G01 X66.7042 Y10.8475
G01 X66.7226 Y10.8351
G01 X66.7422 Y10.8245
G01 X66.7627 Y10.8159
G01 X66.7834 Y10.8094
G01 X66.8058 Y10.8048
G01 X66.8279 Y10.8025
G01 X66.8443 Y10.8022
G01 X66.8502 Y10.8024
G01 X66.8723 Y10.8045
G01 X66.8868 Y10.8070
G01 X66.9084 Y10.8127
G01 X66.9292 Y10.8204
G01 X66.9361 Y10.8235
G01 X66.9551 Y10.8334
G01 X66.9682 Y10.8418
G01 X66.9744 Y10.8461
G01 X66.9917 Y10.8601
G01 X67.0075 Y10.8758
G01 X67.0217 Y10.8929
G01 X67.0342 Y10.9114
G01 X67.0448 Y10.9310
G01 X67.0534 Y10.9515
G01 X67.0598 Y10.9722
G01 X67.0642 Y10.9931
G01 X67.0662 Y11.0092
G01 X67.0667 Y11.0167
G01 X67.0670 Y11.0331
G01 X67.0657 Y11.0536
G01 X67.0622 Y11.0756
G01 X67.0566 Y11.0971
G01 X66.5555 Y12.6007
G01 X66.5507 Y12.6136
G01 X66.5458 Y12.6249
G01 X66.5358 Y12.6439
G01 X66.5303 Y12.6527
G01 X66.5231 Y12.6632
G01 X66.5171 Y12.6710
G01 X66.5091 Y12.6804
G01 X66.5032 Y12.6868
G01 X66.4934 Y12.6963
G01 X66.4860 Y12.7028
G01 X66.4763 Y12.7105
G01 X66.4682 Y12.7162
G01 X66.4578 Y12.7229
G01 X66.4493 Y12.7279
G01 X66.4383 Y12.7335
G01 X66.4292 Y12.7376
G01 X66.4178 Y12.7422
G01 X66.3971 Y12.7486
G01 X66.3878 Y12.7508
G01 X66.3761 Y12.7530
G01 X66.3649 Y12.7545
G01 X66.3525 Y12.7555
G01 X66.3443 Y12.7558
G01 X66.3303 Y12.7556
G01 X66.3204 Y12.7549
G01 X66.3081 Y12.7535
G01 X66.2983 Y12.7519
G01 X66.2863 Y12.7493
G01 X66.2767 Y12.7467
G01 X66.2649 Y12.7430
G01 X66.2557 Y12.7395
G01 X66.2443 Y12.7345
G01 X66.2253 Y12.7246
G01 X66.2165 Y12.7191
G01 X66.2061 Y12.7119
G01 X66.1982 Y12.7059
G01 X66.1888 Y12.6979
G01 X66.1824 Y12.6920
G01 X66.1730 Y12.6822
G01 X66.1664 Y12.6747
G01 X66.1588 Y12.6651
G01 X66.1530 Y12.6570
G01 X66.1463 Y12.6466
G01 X66.1413 Y12.6380
G01 X66.1357 Y12.6271
G01 X66.1298 Y12.6136
G01 X66.1250 Y12.6007
G01 X65.6250 Y11.1007
G01 X65.6184 Y11.0766
G01 X65.6157 Y11.0611
G01 X65.6149 Y11.0536
G00 Z2.0000
G00 X66.1297 Y10.6174
G01 F60.00
G01 Z-0.1000
G01 F120.00
G01 X66.5507 Y10.6174
G01 X66.5456 Y10.6211
G01 X66.5458 Y10.6213
G01 X66.5182 Y10.6423
G01 X66.5070 Y10.6519
G01 X66.4818 Y10.6757
G01 X66.4716 Y10.6864
G01 X66.4719 Y10.6866
G01 X66.4489 Y10.7126
G01 X66.4398 Y10.7242
G01 X66.4198 Y10.7525
G01 X66.4099 Y10.7680
G01 X66.3947 Y10.7950
G01 X66.3881 Y10.8081
G01 X66.3739 Y10.8398
G01 X66.3627 Y10.8698
G01 X66.3402 Y10.9373
G01 X66.3177 Y10.8698
G01 X66.3175 Y10.8699
G01 X66.3119 Y10.8535
G01 X66.3065 Y10.8398
G01 X66.2924 Y10.8081
G01 X66.2857 Y10.7950
G01 X66.2686 Y10.7649
G01 X66.2607 Y10.7525
G01 X66.2604 Y10.7526
G01 X66.2406 Y10.7242
G01 X66.2315 Y10.7126
G01 X66.2088 Y10.6864
G01 X66.1986 Y10.6757
G01 X66.1735 Y10.6519
G01 X66.1623 Y10.6423
G01 X66.1349 Y10.6211
G01 X66.1297 Y10.6174
G00 Z2.0000
G00 X65.8276 Y10.1141
G01 F60.00
G01 Z-0.1000
G01 F120.00
G01 X65.8277 Y8.6103
G01 X65.8285 Y8.5956
G01 X65.8313 Y8.5735
G01 X65.8364 Y8.5519
G01 X65.8386 Y8.5447
G01 X65.8435 Y8.5308
G01 X65.8527 Y8.5105
G01 X65.8563 Y8.5039
G01 X65.8677 Y8.4855
G01 X65.8816 Y8.4673
G01 X65.8968 Y8.4511
G01 X65.9136 Y8.4364
G01 X65.9254 Y8.4276
G01 X65.9443 Y8.4159
G01 X65.9642 Y8.4060
G01 X65.9851 Y8.3982
G01 X65.9923 Y8.3960
G01 X66.0140 Y8.3909
G01 X66.0285 Y8.3888
G01 X66.0507 Y8.3873
G01 X66.0730 Y8.3880
G01 X66.0951 Y8.3909
G01 X66.1024 Y8.3924
G01 X66.1167 Y8.3960
G01 X66.1378 Y8.4031
G01 X66.1581 Y8.4123
G01 X66.1647 Y8.4159
G01 X66.1831 Y8.4272
G01 X66.2013 Y8.4412
G01 X66.2175 Y8.4564
G01 X66.2274 Y8.4673
G01 X66.2410 Y8.4850
G01 X66.2527 Y8.5039
G01 X66.2563 Y8.5105
G01 X66.2626 Y8.5238
G01 X66.2704 Y8.5447
G01 X66.2726 Y8.5519
G01 X66.2775 Y8.5726
G01 X66.2798 Y8.5881
G01 X66.2806 Y8.5956
G01 X66.2814 Y8.6141
G01 X66.2814 Y9.1015
G01 X66.2935 Y9.1015
G01 X66.7258 Y8.4840
G01 X66.7371 Y8.4693
G01 X66.7420 Y8.4636
G01 X66.7575 Y8.4477
G01 X66.7746 Y8.4334
G01 X66.7930 Y8.4208
G01 X66.8057 Y8.4135
G01 X66.8259 Y8.4041
G01 X66.8469 Y8.3967
G01 X66.8685 Y8.3914
G01 X66.8760 Y8.3901
G01 X66.8981 Y8.3877
G01 X66.9149 Y8.3872
G01 X66.9350 Y8.3885
G01 X66.9570 Y8.3919
G01 X66.9786 Y8.3974
G01 X66.9995 Y8.4050
G01 X67.0064 Y8.4080
G01 X67.0262 Y8.4183
G01 X67.0448 Y8.4305
G01 X67.0621 Y8.4444
G01 X67.0728 Y8.4545
G01 X67.0877 Y8.4711
G01 X67.0924 Y8.4770
G01 X67.1009 Y8.4890
G01 X67.1122 Y8.5082
G01 X67.1216 Y8.5284
G01 X67.1290 Y8.5493
G01 X67.1311 Y8.5566
G01 X67.1355 Y8.5770
G01 X67.1375 Y8.5930
G01 X67.1381 Y8.6005
G01 X67.1385 Y8.6173
G01 X67.1373 Y8.6375
G01 X67.1339 Y8.6595
G01 X67.1284 Y8.6810
G01 X67.1260 Y8.6882
G01 X67.1208 Y8.7019
G01 X67.1111 Y8.7220
G01 X67.1074 Y8.7286
G01 X67.0975 Y8.7442
G01 X66.8039 Y9.1637
G01 X66.8790 Y9.2016
G01 X66.8974 Y9.2130
G01 X66.9098 Y9.2221
G01 X66.9220 Y9.2325
G01 X66.9292 Y9.2394
G01 X67.0006 Y9.3108
G01 X67.0075 Y9.3180
G01 X67.0171 Y9.3292
G01 X67.0301 Y9.3472
G01 X67.0414 Y9.3664
G01 X67.1146 Y9.5126
G01 X67.1197 Y9.5238
G01 X67.1248 Y9.5366
G01 X67.1298 Y9.5519
G01 X67.1333 Y9.5661
G01 X67.1356 Y9.5782
G01 X67.1370 Y9.5881
G01 X67.1381 Y9.6018
G01 X67.1385 Y9.6141
G01 X67.1385 Y9.8284
G01 X67.1381 Y9.8407
G01 X67.1370 Y9.8544
G01 X67.1358 Y9.8628
G01 X67.1333 Y9.8763
G01 X67.1298 Y9.8906
G01 X67.1248 Y9.9059
G01 X67.1197 Y9.9186
G01 X67.1146 Y9.9298
G01 X67.0431 Y10.0727
G01 X67.0342 Y10.0889
G01 X67.0271 Y10.0998
G01 X67.0217 Y10.1073
G01 X67.0131 Y10.1180
G01 X67.0032 Y10.1290
G01 X66.9292 Y10.2031
G01 X66.9220 Y10.2099
G01 X66.9098 Y10.2204
G01 X66.8979 Y10.2291
G01 X66.8864 Y10.2366
G01 X66.8703 Y10.2456
G01 X66.7274 Y10.3170
G01 X66.7105 Y10.3245
G01 X66.6895 Y10.3318
G01 X66.6828 Y10.3337
G01 X66.6674 Y10.3371
G01 X66.6458 Y10.3400
G01 X66.6259 Y10.3410
G01 X66.0545 Y10.3410
G01 X66.0360 Y10.3401
G01 X66.0285 Y10.3394
G01 X66.0140 Y10.3372
G01 X65.9923 Y10.3322
G01 X65.9712 Y10.3250
G01 X65.9642 Y10.3222
G01 X65.9443 Y10.3123
G01 X65.9259 Y10.3009
G01 X65.9136 Y10.2918
G01 X65.8968 Y10.2771
G01 X65.8915 Y10.2718
G01 X65.8768 Y10.2550
G01 X65.8680 Y10.2432
G01 X65.8563 Y10.2243
G01 X65.8464 Y10.2044
G01 X65.8386 Y10.1835
G01 X65.8364 Y10.1763
G01 X65.8315 Y10.1556
G01 X65.8292 Y10.1401
G01 X65.8285 Y10.1326
G01 X65.8276 Y10.1141
G00 Z2.0000
G00 X66.2814 Y9.5552
G01 F60.00
G01 Z-0.1000
G01 F120.00
G01 X66.5724 Y9.5552
G01 X66.6344 Y9.5863
G01 X66.6538 Y9.6056
G01 X66.6848 Y9.6676
G01 X66.6848 Y9.7748
G01 X66.6538 Y9.8368
G01 X66.6344 Y9.8562
G01 X66.5724 Y9.8872
G01 X66.2814 Y9.8872
G01 X66.2814 Y9.5552
G00 Z2.0000
G00 X66.4196 Y9.6935
G01 F60.00
G01 Z-0.1000
G01 F120.00
G01 X66.5397 Y9.6935
G01 X66.5443 Y9.6958
G01 X66.5465 Y9.7003
G01 X66.5465 Y9.7422
G01 X66.5443 Y9.7467
G01 X66.5397 Y9.7490
G01 X66.4196 Y9.7490
G01 X66.4196 Y9.6935
G00 Z2.0000
G00 X67.1894 Y10.0893
G01 F60.00
G01 Z-0.1000
G01 F120.00
G01 X67.1655 Y10.1371
G01 X67.1546 Y10.1567
G01 X67.1473 Y10.1680
G01 X67.1476 Y10.1682
G01 X67.1454 Y10.1716
G01 X67.1373 Y10.1824
G01 X67.1377 Y10.1827
G01 X67.1349 Y10.1866
G01 X67.1243 Y10.2006
