(G-CODE GENERATED BY FLATCAM v8.99 - www.flatcam.org - Version Date: 2019/12/15)

(Name: PCB card-F_Cu.gbr_cutout_cnc)
(Type: G-code from Geometry)
(Units: MM)

(Created on Tuesday, 09 December 2025 at 14:03)

(TOOL DIAMETER: 2.4 mm)
(Feedrate: 120.0 mm/min)
(Feedrate_Z: 60.0 mm/min)
(Feedrate rapids 1500.0 mm/min)

(Z_Cut: -2.0000000000000004 mm)
(Z_Move: 2.0 mm)
(Z Toolchange: 15.0 mm)
(X,Y Toolchange: 0.0000, 0.0000 mm)
(Z Start: None mm)
(Z End: 15.0 mm)
(Steps per circle: 64)
(Preprocessor Geometry: default)

(X range:    0.2005 ...   86.7995  mm)
(Y range:    0.2005 ...   56.7995  mm)

(Spindle Speed: None RPM)
G21
G90
G94




G01 F120.00
G00 Z2.0000

M03
G00 X85.4995 Y0.2005
G01 F60.00
G01 Z-2.0000
G01 F120.00
G01 X1.5005 Y0.2005
G01 X1.3731 Y0.2068
G01 X1.2469 Y0.2255
G01 X1.1231 Y0.2565
G01 X1.0030 Y0.2995
G01 X0.8877 Y0.3540
G01 X0.7783 Y0.4196
G01 X0.6758 Y0.4956
G01 X0.5813 Y0.5813
G01 X0.4956 Y0.6758
G01 X0.4196 Y0.7783
G01 X0.3540 Y0.8877
G01 X0.2995 Y1.0030
G01 X0.2565 Y1.1231
G01 X0.2255 Y1.2469
G01 X0.2068 Y1.3731
G01 X0.2005 Y1.5005
G01 X0.2005 Y55.4995
G01 X0.2068 Y55.6269
G01 X0.2255 Y55.7531
G01 X0.2565 Y55.8769
G01 X0.2995 Y55.9970
G01 X0.3540 Y56.1123
G01 X0.4196 Y56.2217
G01 X0.4956 Y56.3242
G01 X0.5813 Y56.4187
G01 X0.6758 Y56.5044
G01 X0.7783 Y56.5804
G01 X0.8877 Y56.6460
G01 X1.0030 Y56.7005
G01 X1.1231 Y56.7435
G01 X1.2469 Y56.7745
G01 X1.3731 Y56.7932
G01 X1.5005 Y56.7995
G01 X85.4995 Y56.7995
G01 X85.6269 Y56.7932
G01 X85.7531 Y56.7745
G01 X85.8769 Y56.7435
G01 X85.9970 Y56.7005
G01 X86.1123 Y56.6460
G01 X86.2217 Y56.5804
G01 X86.3242 Y56.5044
G01 X86.4187 Y56.4187
G01 X86.5044 Y56.3242
G01 X86.5804 Y56.2217
G01 X86.6460 Y56.1123
G01 X86.7005 Y55.9970
G01 X86.7435 Y55.8769
G01 X86.7745 Y55.7531
G01 X86.7932 Y55.6269
G01 X86.7995 Y55.4995
G01 X86.7995 Y1.5005
G01 X86.7932 Y1.3731
G01 X86.7745 Y1.2469
G01 X86.7435 Y1.1231
G01 X86.7005 Y1.0030
G01 X86.6460 Y0.8877
G01 X86.5804 Y0.7783
G01 X86.5044 Y0.6758
G01 X86.4187 Y0.5813
G01 X86.3242 Y0.4956
G01 X86.2217 Y0.4196
G01 X86.1123 Y0.3540
G01 X85.9970 Y0.2995
G01 X85.8769 Y0.2565
G01 X85.7531 Y0.2255
G01 X85.6269 Y0.2068
G01 X85.4995 Y0.2005
G00 Z2.0000
M05
G00 Z2.0000
G00 Z15.00
G00 X0.0 Y0.0

