(G-CODE GENERATED BY FLATCAM v8.99 - www.flatcam.org - Version Date: 2019/12/15)

(Name: PCB card-PTH.drl_cnc)
(Type: G-code from Excellon)
(Units: MM)

(Created on Tuesday, 09 December 2025 at 14:03)

(Feedrate: 300.0 mm/min)
(Feedrate rapids 1500.0 mm/min)

(Z_Cut: -2.0 mm)
(Z_Move: 2.0 mm)
(Z Toolchange: 15.0 mm)
(X,Y Toolchange: 0.0000, 0.0000 mm)
(Z Start: None mm)
(Z End: 0.5 mm)
(Steps per circle: 64)
(Preprocessor Excellon: default)

(X range:   16.5000 ...   37.5850  mm)
(Y range:   18.4750 ...   49.7500  mm)

(Spindle Speed: None RPM)
G21
G90
G94




G01 F300.00
G00 Z2.0000

M03
G00 X27.0250 Y18.9250
G01 Z-2.0000
G01 Z0
G00 Z2.0000
G00 X37.1850 Y18.9250
G01 Z-2.0000
G01 Z0
G00 Z2.0000
M03
G00 X17.1450 Y18.9250
G01 Z-2.0000
G01 Z0
G00 Z2.0000
G00 X19.6850 Y18.9250
G01 Z-2.0000
G01 Z0
G00 Z2.0000
M03
G00 X17.0000 Y49.2500
G01 Z-2.0000
G01 Z0
G00 Z2.0000
G00 X17.0000 Y28.5000
G01 Z-2.0000
G01 Z0
G00 Z2.0000
M03
G00 X30.1850 Y48.9250
G01 Z-2.0000
G01 Z0
G00 Z2.0000
G00 X30.1850 Y44.4250
G01 Z-2.0000
G01 Z0
G00 Z2.0000
G00 X36.6850 Y44.4250
G01 Z-2.0000
G01 Z0
G00 Z2.0000
G00 X36.6850 Y48.9250
G01 Z-2.0000
G01 Z0
G00 Z2.0000
M05
G00 Z0.50
G00 X0.0 Y0.0

